( Made using CamBam - http://www.cambam.co.uk )
( drawing 4/26/2015 1:17:51 AM )
( T0 : 0.0 )
(G21 G90 G64 G40)
G0 Z3.0
( T0 : 0.0 )
(T0 M6)
( Profile1 )
G17
M3 S1000
G0 X39.215 Y-7.8623
G0 Z1.4
G1 F300.0 Z0.0
G1 F800.0 Y-5.6398
G1 Y-3.4173
G1 X41.4375
G1 X43.66
G1 Y-5.6398
G1 Y-7.8623
G1 X41.4375
G1 X39.215
G0 Z3.0
G0 X37.7333
G0 Z1.4
G1 F300.0 Z0.0
G1 F800.0 Y-8.6031
G1 Y-9.344
G1 X41.4375
G1 X45.1416
G1 Y-8.6031
G1 Y-7.8623
G1 X45.8825
G1 X46.6233
G1 Y-3.4173
G1 Y1.0277
G1 X45.1416
G1 X43.66
G1 Y-0.454
G1 Y-1.9356
G1 X40.6966
G1 X37.7333
G1 Y-2.6765
G1 Y-3.4173
G1 X36.9925
G1 X36.2516
G1 Y-5.6398
G1 Y-7.8623
G1 X36.9925
G1 X37.7333
G0 Z3.0
G0 X33.2883
G0 Z1.4
G1 F300.0 Z0.0
G1 F800.0 X31.8066
G1 X30.325
G1 Y-5.6398
G1 Y-3.4173
G1 X31.0658
G1 X31.8066
G1 Y-2.6765
G1 Y-1.9356
G1 X29.5841
G1 X27.3616
G1 Y-4.899
G1 Y-7.8623
G1 X25.88
G1 X24.3983
G1 Y-8.6031
G1 Y-9.344
G1 X28.8433
G1 X33.2883
G1 Y-8.6031
G1 Y-7.8623
G0 Z3.0
G0 X30.325 Y-0.454
G0 Z1.4
G1 F300.0 Z0.0
G1 F800.0 Y0.2869
G1 Y1.0277
G1 X28.8433
G1 X27.3616
G1 Y0.2869
G1 Y-0.454
G1 X28.8433
G1 X30.325
G0 Z3.0
G0 X21.435 Y-1.9356
G0 Z1.4
G1 F300.0 Z0.0
G1 F800.0 X19.9533
G1 X18.4716
G1 Y-0.454
G1 Y1.0277
G1 X16.99
G1 X15.5083
G1 Y-0.454
G1 Y-1.9356
G1 X14.0266
G1 X12.545
G1 Y-2.6765
G1 Y-3.4173
G1 X14.0266
G1 X15.5083
G1 Y-6.3806
G1 Y-9.344
G1 X16.99
G1 X18.4716
G1 Y-6.3806
G1 Y-3.4173
G1 X19.9533
G1 X21.435
G1 Y-2.6765
G1 Y-1.9356
G0 Z3.0
G0 X10.8488 Y-8.5984
G0 Z1.4
G1 F300.0 Z0.0
G1 F800.0 X10.6203 Y-8.7579
G2 X9.7886 Y-9.2677 I-5.1744 J7.5068
G2 X9.3459 Y-9.4757 I-2.2555 J4.2258
G2 X8.8777 Y-9.617 I-0.9112 J2.1731
G2 X8.4235 Y-9.6868 I-1.1342 J5.8688
G1 X8.2238 Y-9.71
G1 X8.0363 Y-9.7287
G2 X7.3316 Y-9.7796 I-1.9581 J22.2017
G2 X6.2727 Y-9.8182 I-1.6592 J30.9396
G2 X5.743 Y-9.8262 I-0.6551 J25.7796
G1 X5.2132 Y-9.8287
G1 X-4.0075 Y-9.2069
G1 X-4.0208
G1 X5.2132 Y-9.8287
G0 Z3.0
G0 X6.2583 Y-8.3073
G0 Z1.4
G1 F300.0 Z0.0
G3 F800.0 X6.9851 Y-8.2754 I-0.0016 J8.3387
G1 X7.1233 Y-8.2605
G3 X7.638 Y-8.1678 I-0.4529 J3.9926
G3 X7.6863 Y-8.1553 I-0.0782 J0.4009
G3 X8.0511 Y-8.0287 I-0.5426 J2.1522
G3 X8.3075 Y-7.8884 I-0.5748 J1.3547
G3 X8.6196 Y-7.5806 I-0.6096 J0.9301
G3 X8.7718 Y-7.1696 I-0.8095 J0.5336
G1 X7.6738 Y-2.7709
G1 X8.7718 Y-7.1696
G0 Z3.0
G0 X6.0508 Y-5.9885
G0 Z1.4
G1 F300.0 Z0.0
G1 F800.0 X6.026 Y-5.7517
G1 X6.0012 Y-5.5148
G1 X5.5276 Y-5.5644
G1 X5.0539 Y-5.614
G1 X4.9547 Y-4.6667
G1 X4.8556 Y-3.7193
G1 X5.0924 Y-3.6945
G1 X5.3292 Y-3.6698
G1 X5.3045 Y-3.4329
G1 X5.2797 Y-3.1961
G1 X5.0428 Y-3.2209
G1 X4.806 Y-3.2457
G1 X4.7812 Y-3.0088
G1 X4.7564 Y-2.772
G1 X4.2828 Y-2.8216
G1 X3.8091 Y-2.8712
G1 X3.9578 Y-4.2922
G1 X4.1066 Y-5.7131
G1 X3.6329 Y-5.7627
G1 X3.1592 Y-5.8123
G1 X3.184 Y-6.0491
G1 X3.2088 Y-6.286
G1 X4.6298 Y-6.1372
G1 X6.0508 Y-5.9885
G0 Z3.0
G0 X3.9167 Y-8.1221
G0 Z1.4
G1 F300.0 Z0.0
G1 F800.0 X4.0626 Y-8.1395
G3 X5.1583 Y-8.2519 I4.1603 J35.1401
G3 X5.1755 Y-8.2534 I0.0163 J0.0909
G3 X5.7163 Y-8.2911 I1.3434 J15.3832
G3 X6.2583 Y-8.3073 I0.5553 J9.4753
G0 Z3.0
G0 X1.6942 Y-7.9369
G0 Z1.4
G1 F300.0 Z0.0
G1 F800.0 X0.5036 Y-7.9766
G1 X0.5697
G1 X1.6016 Y-7.9369
G1 X1.6942
G1 X1.8337 Y-7.9388
G2 X2.3559 Y-7.9662 I-0.5271 J-15.0361
G1 X2.7468 Y-7.9982
G2 X2.8933 Y-8.0118 I-0.5926 J-7.1832
G1 X3.4053 Y-8.0642
G2 X3.4693 Y-8.0712 I-0.0496 J-0.7517
G1 X3.9167 Y-8.1221
G0 Z3.0
G0 X-1.3088 Y-7.9104
G0 Z1.4
G1 F300.0 Z0.0
G1 F800.0 X-0.4028 Y-7.9498
G1 X0.0503 Y-7.9665
G1 X0.2769 Y-7.9731
G1 X0.5036 Y-7.9766
G0 Z3.0
G0 X-3.1873 Y-7.8443
G0 Z1.4
G1 F300.0 Z0.0
G2 F800.0 X-2.9524 Y-7.8458 I0.0718 J-7.3945
G2 X-1.3088 Y-7.9104 I-0.6031 J-36.2331
G0 Z3.0
G0 X-2.8233 Y-5.7269
G0 Z1.4
G1 F300.0 Z0.0
G1 F800.0 X-2.7882 Y-5.4914
G1 X-2.753 Y-5.2559
G1 X-2.5175 Y-5.291
G1 X-2.282 Y-5.3262
G1 X-2.1766 Y-4.6196
G1 X-2.0711 Y-3.9131
G1 X-2.3066 Y-3.8779
G1 X-2.5421 Y-3.8428
G1 X-2.507 Y-3.6073
G1 X-2.4718 Y-3.3717
G1 X-2.7073 Y-3.3366
G1 X-2.9429 Y-3.3014
G1 X-2.9077 Y-3.0659
G1 X-2.8726 Y-2.8304
G1 X-3.5791 Y-2.725
G1 X-4.2857 Y-2.6195
G1 X-4.3208 Y-2.855
G1 X-4.356 Y-3.0905
G1 X-4.5915 Y-3.0554
G1 X-4.827 Y-3.0202
G1 X-4.8621 Y-3.2557
G1 X-4.8973 Y-3.4913
G1 X-5.1328 Y-3.4561
G1 X-5.3683 Y-3.421
G1 X-5.4738 Y-4.1275
G1 X-5.5792 Y-4.8341
G1 X-5.3437 Y-4.8692
G1 X-5.1082 Y-4.9044
G1 X-5.1434 Y-5.1399
G1 X-5.1785 Y-5.3754
G1 X-4.943 Y-5.4105
G1 X-4.7075 Y-5.4457
G1 X-4.7426 Y-5.6812
G1 X-4.7778 Y-5.9167
G1 X-4.0712 Y-6.0222
G1 X-3.3647 Y-6.1276
G1 X-3.3295 Y-5.8921
G1 X-3.2944 Y-5.6566
G1 X-3.0589 Y-5.6918
G1 X-2.8233 Y-5.7269
G0 Z3.0
G0 X-4.0208 Y-9.2069
G0 Z1.0
G1 F300.0 Z0.0
G2 F800.0 X-4.3262 Y-9.236 I-0.5865 J4.5354
G2 X-6.4682 Y-9.3921 I-17.3217 J222.9282
G1 X-6.825 Y-9.4177
G1 X-6.9812 Y-9.4287
G1 X-7.0544 Y-9.4338
G2 X-8.1893 Y-9.5064 I-8.9446 J130.8469
G1 X-8.7573 Y-9.5354
G1 X-9.0414 Y-9.5459
G1 X-9.1835 Y-9.5494
G2 X-9.2546 Y-9.5505 I-0.0456 J0.6863
G1 X-9.3257 Y-9.5509
G2 X-9.4714 Y-9.549 I-0.0469 J2.0599
G2 X-9.6167 Y-9.5376 I0.0181 J1.1631
G1 X-9.458 Y-8.7174
G1 X-9.6167 Y-9.5376
G0 Z3.0
G0 X-9.458 Y-8.7174
G0 Z1.0
G1 F300.0 Z0.0
G2 F800.0 X-6.3398 Y-8.1576 I15.1114 J-75.2047
G1 X-5.9479 Y-8.0987
G1 X-5.6046 Y-8.0502
G1 X-5.3038 Y-8.0103
G2 X-5.172 Y-7.9938 I0.8078 J-5.8841
G1 X-4.9249 Y-7.9642
G1 X-4.4917 Y-7.9181
G1 X-4.1663 Y-7.889
G1 X-4.0442 Y-7.8796
G2 X-3.1873 Y-7.8443 I0.9297 J-12.1546
G0 Z3.0
G0 X-7.8359 Y-4.7039
G0 Z1.4
G1 F300.0 Z0.0
G1 F800.0 X-8.6566 Y-4.6383
G1 X-7.8359 Y-4.7039
G3 X-7.777 Y-4.6263 I-0.6437 J0.5502
G3 X-7.6803 Y-4.4715 I-3.3562 J2.2031
G3 X-7.5334 Y-4.1882 I-2.812 J1.6383
G3 X-7.1822 Y-3.2984 I-7.2106 J3.3601
G1 X-7.1217 Y-3.1138
G3 X-6.6875 Y-1.6719 I-54.9488 J17.3319
G1 X-6.3749 Y-0.5868
G3 X-5.9125 Y1.0428 I-248.1438 J71.2893
G1 X-5.6821 Y1.8578
G2 X-5.4498 Y2.6723 I61.076 J-16.9782
G1 X-5.3242 Y3.0932
G1 X-5.2096 Y3.4599
G2 X-5.1584 Y3.6201 I3.2211 J-0.94
G1 X-5.1102 Y3.7702
G1 X-5.0649 Y3.9109
G1 X-4.9804 Y4.1747
G3 X-4.9437 Y4.2903 I-2.3756 J0.8169
G3 X-4.4501 Y6.0397 I-25.0015 J7.9997
G1 X-4.4132 Y6.1892
G1 X-4.1314 Y7.3488
G3 X-3.7238 Y9.0919 I-122.2765 J29.5075
G1 X-3.6263 Y9.5288
G3 X-3.5552 Y9.8569 I-11.4762 J2.6586
G3 X-3.454 Y10.3503 I-21.8395 J4.7349
G3 X-3.3715 Y10.8471 I-6.22 J1.2887
G3 X-3.3834 Y11.4652 I-2.2871 J0.2652
G3 X-3.4622 Y11.7652 I-1.7193 J-0.2913
G3 X-3.5872 Y12.049 I-2.1111 J-0.7608
G3 X-3.6772 Y12.1773 I-0.4922 J-0.2495
G3 X-3.8879 Y12.3491 I-0.7578 J-0.7144
G3 X-4.2511 Y12.5317 I-1.2134 J-1.9609
G3 X-4.635 Y12.6653 I-1.6401 J-4.0938
G2 X-5.228 Y12.885 I1.307 J4.437
G2 X-5.7906 Y13.1738 I2.8848 J6.3141
G2 X-6.0844 Y13.3769 I0.9753 J1.7249
G3 X-6.2242 Y13.491 I-1.8693 J-2.1473
G3 X-6.3915 Y13.559 I-0.2005 J-0.2536
G3 X-6.6538 Y13.5735 I-0.2444 J-2.0392
G3 X-6.7864 Y13.5532 I0.005 J-0.4753
G3 X-6.9 Y13.4819 I0.0678 J-0.2343
G1 X-6.9965 Y13.3734
G3 X-7.1163 Y13.1903 I0.5594 J-0.4965
G3 X-7.1465 Y12.9735 I0.3727 J-0.1625
G3 X-7.1088 Y12.8557 I0.3449 J0.0456
G3 X-6.9832 Y12.6826 I0.7046 J0.379
G3 X-6.7479 Y12.466 I1.7444 J1.6597
G1 X-6.4994 Y12.2647
G1 X-6.4236 Y12.2042
G1 X-6.1366 Y11.9815
G1 X-5.9199 Y11.8163
G3 X-5.2667 Y11.3248 I69.599 J91.815
G1 X-5.5911 Y9.5823
G1 X-5.7563 Y8.7116
G1 X-5.8406 Y8.2766
G1 X-5.8839 Y8.0594
G1 X-5.9293 Y7.8425
G1 X-6.2397 Y6.3954
G1 X-6.6988 Y4.2233
G1 X-6.8127 Y3.6801
G1 X-6.8552 Y3.4763
G1 X-7.0031 Y2.7631
G3 X-7.1465 Y2.0489 I27.9148 J-5.9793
G1 X-7.2708 Y1.4239
G2 X-7.7222 Y-0.7603 I-429.9597 J87.7044
G1 X-8.1789 Y-2.9434
G3 X-8.4357 Y-2.9774 I-0.0212 J-0.8271
G3 X-8.6566 Y-3.1129 I0.1209 J-0.4449
G3 X-8.7174 Y-3.214 I0.2816 J-0.2383
G3 X-8.7724 Y-3.4112 I0.8503 J-0.3434
G3 X-8.7908 Y-3.7169 I1.5108 J-0.2445
G3 X-8.7644 Y-4.022 I2.2989 J0.0452
G3 X-8.6566 Y-4.6383 I11.5861 J1.71
G0 Z3.0
G0 X-11.5775 Y-8.5067
G0 Z1.4
G1 F300.0 Z0.0
G3 F800.0 X-11.705 Y-7.9023 I-1.6011 J-0.0222
G3 X-11.9604 Y-7.4348 I-2.4158 J-1.0162
G3 X-12.5634 Y-6.7301 I-3.815 J-2.6544
G3 X-12.8179 Y-6.4936 I-4.1849 J-4.2458
G3 X-13.2858 Y-6.1057 I-6.876 J-7.819
G1 X-13.4669 Y-5.9675
G3 X-14.1191 Y-5.5083 I-10.1612 J-13.7408
G1 X-14.2857 Y-5.3987
G1 X-14.4114 Y-5.3177
G3 X-14.6011 Y-5.1981 I-11.916 J-18.6774
G1 X-14.7922 Y-5.0804
G3 X-15.8717 Y-4.4517 I-14.5284 J-23.7058
G3 X-16.2861 Y-4.2311 I-9.5985 J-17.5309
G3 X-17.0258 Y-3.8728 I-7.0843 J-13.6829
G1 X-17.3089 Y-3.7498
G3 X-18.328 Y-3.3914 I-3.2843 J-7.7106
G3 X-18.5907 Y-3.3261 I-1.3935 J-5.0502
G3 X-18.69 Y-3.3051 I-0.3401 J-1.3623
G3 X-19.041 Y-3.2494 I-0.7647 J-3.6818
G3 X-19.3959 Y-3.2283 I-0.3373 J-2.6824
G3 X-20.0849 Y-3.4574 I0.0092 J-1.1783
G3 X-20.3581 Y-3.6985 I1.0101 J-1.4197
G3 X-20.5865 Y-3.9824 I1.6831 J-1.5885
G1 Y-4.5512
G1 Y-3.9824
G0 Z3.0
G0 Y-4.5512
G0 Z1.0
G1 F300.0 Z0.0
G3 F800.0 X-20.3307 Y-4.8199 I0.8934 J0.5943
G3 X-19.978 Y-4.9349 I0.3551 J0.491
G3 X-19.9181 Y-4.9222 I-0.0424 J0.3477
G3 X-19.8173 Y-4.8868 I-0.2398 J0.8434
G3 X-19.5216 Y-4.7629 I-2.1431 J5.532
G2 X-19.291 Y-4.6654 I13.6883 J-32.0458
G1 X-19.2325 Y-4.6426
G2 X-19.1438 Y-4.6114 I0.3213 J-0.7711
G2 X-19.0519 Y-4.5909 I0.1429 J-0.4246
G2 X-18.8853 Y-4.6104 I-0.0107 J-0.8109
G2 X-18.5848 Y-4.698 I-0.4201 J-2.0009
G2 X-18.0802 Y-4.9086 I-2.2482 J-6.0981
G2 X-17.7114 Y-5.0879 I-6.4302 J-13.6963
G1 X-17.4383 Y-5.2293
G1 X-17.235 Y-5.3381
G1 X-16.932 Y-5.5051
G1 X-16.631 Y-5.6757
G2 X-16.4761 Y-5.7637 I-1.7817 J-3.3163
G2 X-15.3258 Y-6.4427 I-19.7534 J-34.7747
G2 X-15.2548 Y-6.4868 I-1.1074 J-1.8657
G2 X-14.9901 Y-6.6543 I-4.2055 J-6.9394
G2 X-14.5994 Y-6.9153 I-4.919 J-7.7871
G1 X-14.4086 Y-7.0525
G1 X-14.3616 Y-7.0878
G1 X-14.2233 Y-7.1971
G2 X-13.7397 Y-7.7385 I-1.7333 J-2.0346
G2 X-13.4428 Y-8.4009 I-1.7818 J-1.1966
G2 X-13.9485 Y-8.7282 I-1.1089 J1.159
G2 X-14.5408 Y-8.8375 I-0.5832 J1.5014
G2 X-14.5936 Y-8.8329 I-0.0078 J0.2198
G2 X-14.7965 Y-8.7876 I0.2522 J1.6047
G1 X-14.9836 Y-8.7335
G1 X-15.1577 Y-8.6787
G2 X-15.3202 Y-8.6251 I5.7923 J17.8581
G1 X-15.6237 Y-8.5211
G1 X-15.7562 Y-8.4746
G1 X-16.2514 Y-8.296
G1 X-16.9913 Y-8.0205
G1 X-17.1759 Y-7.9507
G1 X-17.3143 Y-7.8981
G1 X-17.5217 Y-7.8189
G1 X-17.6254 Y-7.7792
G1 X-17.729 Y-7.7394
G3 X-17.9398 Y-7.6574 I-15.5004 J-39.5209
G1 X-18.3356 Y-7.5053
G1 X-18.6829 Y-7.3743
G1 X-18.8352 Y-7.3178
G3 X-19.4079 Y-7.1106 I-7.6537 J-20.2631
G1 X-19.6237 Y-7.0354
G1 X-19.8132 Y-6.9711
G3 X-20.4816 Y-6.7629 I-4.8214 J-14.2974
G3 X-20.8215 Y-6.6768 I-1.8382 J-6.5414
G3 X-20.9938 Y-6.6441 I-0.4984 J-2.1612
G3 X-21.1686 Y-6.6282 I-0.1972 J-1.1975
G3 X-21.5089 Y-6.6469 I0.027 J-3.6003
G3 X-21.636 Y-6.6653 I0.216 J-1.9399
G3 X-22.0652 Y-6.797 I0.2462 J-1.5672
G3 X-22.4254 Y-7.0648 I0.4621 J-0.9978
G3 X-22.4747 Y-7.1347 I0.757 J-0.5856
G1 X-22.5579 Y-7.2719
G1 X-22.6969 Y-7.5159
G1 X-22.9 Y-7.8848
G1 X-23.1001 Y-8.2554
G2 X-24.1584 Y-9.7371 I-5.9969 J3.1647
G1 Y-10.3324
G1 Y-9.7371
G0 Z3.0
G0 Y-10.3324
G0 Z1.0
G1 F300.0 Z0.0
G3 F800.0 X-23.9006 Y-10.5979 I0.9302 J0.6452
G3 X-23.5499 Y-10.716 I0.3591 J0.4863
G3 X-23.4907 Y-10.7005 I-0.0053 J0.1403
G3 X-23.4389 Y-10.6736 I-0.107 J0.2696
G3 X-23.2555 Y-10.5421 I-1.0868 J1.7094
G1 X-23.2173 Y-10.5108
G3 X-23.1989 Y-10.4955 I-0.1012 J0.1401
G3 X-22.648 Y-9.9831 I-6.1829 J7.199
G1 X-22.3828 Y-9.7163
G3 X-22.3499 Y-9.6826 I-0.4629 J0.4856
G1 X-22.1211 Y-9.446
G1 X-21.9405 Y-9.2581
G2 X-21.2799 Y-8.6276 I8.0872 J-7.8124
G2 X-21.1024 Y-8.4809 I2.5594 J-2.9162
G2 X-20.819 Y-8.282 I1.5909 J-1.9659
G2 X-20.6637 Y-8.2027 I0.6713 J-1.1221
G2 X-20.4939 Y-8.1628 I0.194 J-0.444
G3 X-20.4065 Y-8.2041 I0.2733 J0.4654
G3 X-20.0589 Y-8.3429 I3.883 J9.2131
G1 X-19.4478 Y-8.5785
G1 X-18.9887 Y-8.7534
G1 X-18.2995 Y-9.0142
G1 X-17.61 Y-9.274
G1 X-17.3802 Y-9.3591
G1 X-17.1645 Y-9.438
G1 X-16.759 Y-9.5837
G1 X-16.4032 Y-9.7083
G1 X-16.2471 Y-9.7618
G3 X-15.9538 Y-9.8602 I5.1312 J14.8095
G3 X-14.9179 Y-10.1759 I6.1961 J18.4753
G3 X-14.3908 Y-10.3033 I2.4112 J8.8197
G3 X-14.1234 Y-10.3502 I1.1578 J5.8218
G3 X-13.8529 Y-10.3721 I0.2884 J1.8824
G3 X-13.4476 Y-10.315 I-0.001 J1.4747
G3 X-12.8864 Y-10.0726 I-0.6368 J2.2447
G3 X-12.3844 Y-9.7238 I-2.0274 J3.454
G3 X-12.1037 Y-9.4773 I-3.2008 J3.9273
G3 X-11.746 Y-9.0433 I-1.5492 J1.6414
G3 X-11.6247 Y-8.7866 I-1.1763 J0.7131
G3 X-11.5775 Y-8.5067 I-0.8486 J0.2871
G0 Z3.0
G0 X-0.6636 Y-0.075
G0 Z1.4
G1 F300.0 Z0.0
G1 F800.0 X0.4528 Y-0.9665
G1 X1.5693 Y-1.8581
G1 X1.7179 Y-1.672
G1 X1.8665 Y-1.4859
G1 X1.4943 Y-1.1887
G1 X1.1222 Y-0.8915
G1 X1.7165 Y-0.1472
G1 X2.3109 Y0.5971
G1 X2.497 Y0.4485
G1 X2.683 Y0.2999
G1 X2.8316 Y0.486
G1 X2.9802 Y0.672
G1 X2.7941 Y0.8206
G1 X2.6081 Y0.9692
G1 X2.7567 Y1.1553
G1 X2.9052 Y1.3414
G1 X2.5331 Y1.6385
G1 X2.1609 Y1.9357
G1 X1.2694 Y0.8193
G1 X0.3778 Y-0.2972
G1 X0.0057 Y0.0
G1 X-0.3665 Y0.2972
G1 X-0.515 Y0.1111
G1 X-0.6636 Y-0.075
G0 Z3.0
G0 X-1.4808 Y2.1615
G0 Z1.4
G1 F300.0 Z0.0
G1 F800.0 X-1.3481 Y2.21
G1 X-0.6771 Y2.4551
G1 X-0.7588 Y2.6788
G1 X-0.8406 Y2.9024
G1 X-0.6169 Y2.9842
G1 X-0.3932 Y3.0659
G1 X-0.475 Y3.2896
G1 X-0.5567 Y3.5132
G1 X-0.333 Y3.5949
G1 X-0.1094 Y3.6767
G1 X-0.3545 Y4.3477
G1 X-0.5997 Y5.0186
G1 X-0.8234 Y4.9369
G1 X-1.047 Y4.8552
G1 X-1.1288 Y5.0789
G1 X-1.2105 Y5.3025
G1 X-1.4341 Y5.2208
G1 X-1.6578 Y5.1391
G1 X-1.7395 Y5.3627
G1 X-1.8212 Y5.5864
G1 X-2.4922 Y5.3412
G1 X-3.1632 Y5.0961
G1 X-3.0815 Y4.8724
G1 X-2.9998 Y4.6487
G1 X-3.2234 Y4.567
G1 X-3.4471 Y4.4853
G1 X-3.3654 Y4.2616
G1 X-3.2837 Y4.038
G1 X-3.5073 Y3.9562
G1 X-3.731 Y3.8745
G1 X-3.4858 Y3.2035
G1 X-3.2406 Y2.5325
G1 X-3.017 Y2.6143
G1 X-2.7933 Y2.696
G1 X-2.7116 Y2.4723
G1 X-2.6299 Y2.2487
G1 X-2.4062 Y2.3304
G1 X-2.1825 Y2.4121
G1 X-2.1008 Y2.1885
G1 X-2.0191 Y1.9648
G1 X-1.4808 Y2.1615
G0 Z3.0
G0 X6.1128 Y2.6729
G0 Z1.4
G1 F300.0 Z0.0
G1 F800.0 X5.9872 Y3.0936
G1 X5.8727 Y3.4603
G1 X5.6675 Y4.1005
G2 X5.114 Y6.0397 I27.6376 J8.938
G1 X4.8213 Y7.237
G1 X4.6064 Y8.1362
G1 X4.527 Y8.4737
G1 X4.3904 Y9.0648
G1 X4.3652 Y9.1758
G1 X4.3183 Y9.3839
G1 X4.2778 Y9.5661
G2 X4.2734 Y9.5861 I0.1023 J0.0331
G1 X4.2051 Y9.9002
G1 X4.1556 Y10.1363
G1 X4.1375 Y10.2249
G1 X4.1219 Y10.3025
G2 X4.0704 Y10.5747 I21.9367 J4.2911
G2 X4.0292 Y10.8485 I3.2261 J0.6258
G2 X4.042 Y11.4647 I2.2492 J0.2615
G2 X4.1219 Y11.7633 I1.7457 J-0.3073
G2 X4.2475 Y12.0458 I2.4533 J-0.9215
G2 X4.4526 Y12.2806 I0.6298 J-0.3432
G2 X4.5473 Y12.3479 I1.3426 J-1.7889
G2 X4.9091 Y12.5328 I1.3155 J-2.1274
G2 X5.2926 Y12.6675 I1.8354 J-4.6112
G3 X5.5931 Y12.7679 I-1.09 J3.763
G3 X6.4501 Y13.1768 I-2.0508 J5.4005
G3 X6.7442 Y13.3795 I-0.9389 J1.6776
G2 X6.8846 Y13.4931 I1.5352 J-1.7534
G2 X7.052 Y13.5605 I0.1968 J-0.2472
G1 X7.194 Y13.5721
G2 X7.3365 Y13.5737 I0.0806 J-0.8242
G2 X7.4583 Y13.55 I-0.0144 J-0.3986
G2 X7.5614 Y13.4811 I-0.0789 J-0.2297
G1 X7.6098 Y13.427
G2 X7.6922 Y13.3296 I-1.4184 J-1.2827
G2 X7.7865 Y13.1626 I-0.4399 J-0.3586
G2 X7.8061 Y12.9718 I-0.3821 J-0.1357
G2 X7.7682 Y12.854 I-0.3405 J0.0445
G2 X7.6423 Y12.6812 I-0.7192 J0.392
G2 X7.4065 Y12.4652 I-1.8016 J1.7294
G1 X7.1579 Y12.264
G1 X7.0062 Y12.1439
G1 X6.7381 Y11.937
G1 X6.5361 Y11.7831
G1 X5.9276 Y11.3248
G1 X6.2513 Y9.5838
G1 X6.4162 Y8.7139
G1 X6.5005 Y8.2792
G1 X6.5437 Y8.0621
G1 X6.589 Y7.8455
G1 X6.8167 Y6.7812
G1 X6.9012 Y6.3818
G1 X7.4886 Y3.5857
G1 X7.8364 Y2.2812
G1 X7.9012 Y2.0364
G2 X8.8512 Y-1.6398 I-323.9899 J-85.6859
G1 X8.962 Y-2.0786
G1 X9.0677 Y-2.4896
G1 X9.2705 Y-3.2588
G1 X9.4529 Y-3.9305
G1 X9.6161 Y-4.5173
G3 X10.8488 Y-8.5984 I106.0107 J29.7949
G0 Z3.0
G0 X7.6738 Y-2.7709
G0 Z1.0
G1 F300.0 Z0.0
G1 F800.0 X7.6606 Y-2.7279
G2 X7.6473 Y-2.6849 I0.2513 J0.1007
G1 X7.622 Y-2.6016
G1 X7.4265 Y-1.9442
G1 X7.259 Y-1.368
G1 X6.9702 Y-0.3584
G2 X6.8628 Y0.0205 I164.522 J46.8466
G1 X6.4888 Y1.347
G1 X6.3953 Y1.6786
G3 X6.1128 Y2.6729 I-124.2328 J-34.7682
G0 Z3.0
G0 X-26.2618 Y-0.6222
G0 Z1.4
G1 F300.0 Z0.0
G1 F800.0 Y-4.2205
G1 Y-0.6222
G3 X-26.2838 Y0.5699 I-36.5909 J-0.0772
G3 X-26.3681 Y2.3561 I-66.0538 J-2.2236
G1 X-26.3747 Y2.4677
G1 X-26.4279 Y3.3042
G1 X-26.4867 Y4.1403
G1 X-27.0556 Y11.7868
G1 X-26.4867 Y4.1403
G0 Z3.0
G0 X-28.7092 Y12.0514
G0 Z1.4
G1 F300.0 Z0.0
G1 F800.0 X-27.7832 Y-1.9583
G1 X-28.7092 Y12.0514
G0 Z3.0
G0 X-28.7225 Y12.3557
G0 Z1.4
G1 F300.0 Z0.0
G3 F800.0 X-28.7224 Y12.3365 I0.0948 J-0.0093
G3 X-28.7092 Y12.0514 I3.0028 J-0.0041
G0 Z3.0
G0 X-27.0556 Y11.7868
G0 Z1.0
G1 F300.0 Z0.0
G3 F800.0 X-27.2028 Y12.8677 I-7.7665 J-0.5072
G3 X-27.3431 Y13.3958 I-4.7613 J-0.9823
G3 X-27.5451 Y13.9035 I-3.8507 J-1.238
G1 X-28.3124
G1 X-27.5451
G0 Z3.0
G0 X-28.3124
G0 Z1.0
G1 F300.0 Z0.0
G3 F800.0 X-28.6316 Y13.1598 I2.021 J-1.3081
G1 X-28.6541 Y13.061
G3 X-28.7225 Y12.3557 I3.282 J-0.674
G0 Z3.0
G0 X-27.7832 Y-1.9583
G0 Z1.0
G1 F300.0 Z0.0
G1 F800.0 Y-1.998
G2 X-27.8707 Y-2.3075 I-0.6469 J0.0158
G2 X-28.061 Y-2.5668 I-1.1602 J0.6519
G2 X-28.3092 Y-2.7946 I-0.8632 J0.6915
G2 X-28.6299 Y-2.8976 I-0.3329 J0.486
G1 X-28.7055 Y-2.8916
G1 X-28.9974 Y-2.8581
G1 X-29.2527 Y-2.8264
G1 X-30.1453 Y-2.7112
G1 X-30.3684 Y-2.6819
G1 X-30.4521 Y-2.6708
G1 X-30.7449 Y-2.6321
G1 X-31.0376 Y-2.5933
G1 X-36.025 Y-1.9451
G1 X-31.0376 Y-2.5933
G0 Z3.0
G0 X-36.9907 Y-2.924
G0 Z1.4
G1 F300.0 Z0.0
G1 F800.0 X-28.1272 Y-4.5909
G1 X-36.9907 Y-2.924
G0 Z3.0
G0 X-37.1627 Y-2.9108
G0 Z1.4
G1 F300.0 Z0.0
G2 F800.0 X-37.1194 Y-2.9113 I0.0184 J-0.2814
G2 X-36.9907 Y-2.924 I0.0126 J-0.5292
G0 Z3.0
G0 X-36.025 Y-1.9451
G0 Z1.0
G1 F300.0 Z0.0
G1 F800.0 X-36.5337 Y-1.8802
G1 X-37.2971 Y-1.7858
G1 X-37.4881 Y-1.7632
G1 X-37.6314 Y-1.7468
G1 X-37.8465 Y-1.7237
G1 X-37.9542 Y-1.7136
G3 X-38.0623 Y-1.7069 I-0.1266 J-1.1812
G3 X-38.4948 Y-1.717 I-0.0324 J-7.8861
G3 X-39.9935 Y-1.9241 I0.3806 J-8.2805
G3 X-41.4225 Y-2.4213 I1.6297 J-6.9857
G3 X-42.128 Y-2.8189 I2.2008 J-4.7298
G3 X-42.6026 Y-3.2057 I2.0074 J-2.948
G3 X-42.9027 Y-3.5556 I1.864 J-1.9023
G3 X-43.3142 Y-4.8555 I1.7759 J-1.2773
G3 X-43.2246 Y-5.2708 I1.0984 J0.0197
G3 X-43.0458 Y-5.5904 I1.5574 J0.6616
G3 X-42.6252 Y-6.0696 I2.5302 J1.7963
G3 X-41.8819 Y-6.6684 I4.4971 J4.8221
G1 X-41.6851 Y-6.8034
G1 X-41.6105 Y-6.8528
G3 X-41.0785 Y-7.1838 I6.4057 J9.7018
G3 X-39.5029 Y-8.0286 I8.7859 J14.4945
G3 X-37.8374 Y-8.6787 I5.4953 J11.6205
G3 X-36.951 Y-8.914 I4.535 J15.2966
G3 X-35.6013 Y-9.1778 I4.4489 J19.1764
G3 X-34.239 Y-9.3666 I4.8289 J29.8312
G3 X-33.7797 Y-9.423 I2.6667 J19.8281
G1 X-33.3775 Y-9.4703
G1 X-31.9696 Y-9.6314
G1 X-31.2655 Y-9.7109
G1 X-30.9134 Y-9.7505
G1 X-30.7373 Y-9.7702
G1 X-30.5613 Y-9.79
G2 X-30.0469 Y-9.8687 I-1.9788 J-14.6511
G1 X-29.8545 Y-9.9018
G2 X-28.5108 Y-10.1472 I-15.9861 J-91.3613
G3 X-27.5429 Y-10.3075 I5.713 J31.4849
G3 X-27.4213 Y-10.3245 I0.3599 J2.1349
G1 X-27.3149 Y-10.3385
G1 X-27.2216 Y-10.35
G3 X-26.5661 Y-10.3985 I0.7643 J5.876
G3 X-26.2942 Y-10.3509 I-0.022 J0.9263
G3 X-25.9116 Y-10.1961 I-0.8756 J2.7146
G1 X-25.8191 Y-10.1501
G1 X-25.7505 Y-10.1143
G3 X-25.6485 Y-10.0589 I-0.6059 J1.2369
G1 X-25.5475 Y-10.0016
G3 X-25.6209 Y-9.8387 I-3.773 J-1.6037
G3 X-25.692 Y-9.6991 I-1.6321 J-0.7431
G3 X-25.8348 Y-9.4646 I-1.9007 J-0.9961
G3 X-26.1056 Y-9.1537 I-1.3673 J-0.918
G3 X-26.4603 Y-8.9433 I-0.6986 J-0.7732
G3 X-27.2161 Y-8.7628 I-1.7249 J-5.5491
G3 X-28.3696 Y-8.6007 I-3.1457 J-18.1977
G1 X-28.6592 Y-8.5701
G1 X-29.0942 Y-8.5294
G1 X-29.3118 Y-8.5109
G1 X-29.4206 Y-8.5021
G3 X-29.5294 Y-8.4935 I-0.2014 J-1.8667
G1 X-30.1885 Y-8.4383
G1 X-30.3326 Y-8.4254
G1 X-31.4488 Y-8.3199
G1 X-32.2856 Y-8.2369
G1 X-33.5403 Y-8.1087
G1 X-34.7947 Y-7.9776
G2 X-35.3155 Y-7.8889 I0.6991 J5.6819
G1 X-35.5408 Y-7.8376
G2 X-36.3749 Y-7.6052 I3.2246 J13.1854
G1 X-36.5298 Y-7.5565
G2 X-36.8191 Y-7.4621 I2.9646 J9.5678
G1 X-37.0713 Y-7.3763
G2 X-38.8163 Y-6.7208 I12.6994 J36.4557
G2 X-39.0279 Y-6.6352 I2.7256 J7.0405
G1 X-39.2258 Y-6.5529
G1 X-39.4107 Y-6.4737
G2 X-39.4972 Y-6.4358 I0.4301 J1.1011
G2 X-39.581 Y-6.3987 I0.4222 J1.0642
G2 X-39.6619 Y-6.3622 I0.4147 J1.0292
G2 X-39.7402 Y-6.3265 I0.4079 J0.9964
G2 X-40.3389 Y-6.0323 I4.297 J9.4997
G2 X-40.7773 Y-5.7834 I4.7294 J8.8442
G2 X-41.0948 Y-5.5727 I2.0989 J3.5075
G2 X-41.3211 Y-5.3947 I2.2404 J3.0798
G2 X-41.6176 Y-5.0779 I1.1296 J1.3543
G2 X-41.7234 Y-4.8856 I0.6671 J0.4924
G2 X-41.7664 Y-4.6703 I0.5609 J0.224
G1 Y-4.6174
G2 X-41.6657 Y-4.3261 I0.704 J-0.0805
G2 X-41.5001 Y-4.1202 I0.9668 J-0.6077
G2 X-41.1329 Y-3.8451 I1.3227 J-1.3832
G2 X-41.0584 Y-3.8023 I0.5845 J-0.929
G2 X-40.4725 Y-3.5359 I2.2841 J-4.2463
G2 X-39.8614 Y-3.3341 I2.564 J-6.74
G2 X-38.5268 Y-3.0286 I3.2592 J-11.1685
G2 X-37.8472 Y-2.9419 I1.5551 J-9.4856
G1 X-37.6763 Y-2.9285
G2 X-37.1627 Y-2.9108 I0.487 J-6.6572
G0 Z3.0
G0 X-28.1272 Y-4.5909
G0 Z1.0
G1 F300.0 Z0.0
G3 F800.0 X-27.9552 Y-4.6041 I0.1578 J0.9268
G1 X-27.9006 Y-4.6031
G3 X-27.4819 Y-4.5514 I-0.1428 J2.8788
G3 X-26.8668 Y-4.4046 I-1.6769 J8.3835
G3 X-26.2618 Y-4.2205 I-3.5853 J12.8701
G0 Z3.0
M5
M30
