( Made using CamBam - http://www.cambam.co.uk )
( drawing 11/18/2014 12:42:45 AM )
( T0 : 0.0 )
G21 G90 G64 G40
G0 Z3.0
( T0 : 0.0 )
T0 M6
( Profile1 )
G17
M3 S1000
G0 X-48.5758 Y-8.8906
G0 Z1.4
G1 F300.0 Z0.0
G1 F800.0 X-51.5392
G1 X-54.5025
G1 Y-5.9272
G1 Y-2.9639
G1 X-51.5392
G1 X-48.5758
G1 Y-5.9272
G1 Y-8.8906
G0 Z3.0
G0 X-46.6003
G0 Z1.4
G1 F300.0 Z0.0
G1 F800.0 X-45.6125
G1 X-44.6247
G1 Y-5.9272
G1 Y-2.9639
G1 X-45.6125
G1 X-46.6003
G1 Y-1.9761
G1 Y-0.9883
G1 X-50.5514
G1 X-54.5025
G1 Y0.9872
G1 Y2.9628
G1 X-56.478
G1 X-58.4536
G1 Y-2.9639
G1 Y-8.8906
G1 X-57.4658
G1 X-56.478
G1 Y-9.8783
G1 Y-10.8661
G1 X-51.5392
G1 X-46.6003
G1 Y-9.8783
G1 Y-8.8906
G0 Z3.0
G0 X-40.6736
G0 Z1.4
G1 F300.0 Z0.0
G1 F800.0 Y-9.8783
G1 Y-10.8661
G1 X-34.7469
G1 X-28.8203
G1 Y-9.8783
G1 Y-8.8906
G1 X-30.7958
G1 X-32.7714
G1 Y-4.9395
G1 Y-0.9883
G1 X-35.7347
G1 X-38.698
G1 Y-1.9761
G1 Y-2.9639
G1 X-37.7103
G1 X-36.7225
G1 Y-5.9272
G1 Y-8.8906
G1 X-38.698
G1 X-40.6736
G0 Z3.0
G0 X-36.7225 Y0.9872
G0 Z1.4
G1 F300.0 Z0.0
G1 F800.0 X-34.7469
G1 X-32.7714
G1 Y1.975
G1 Y2.9628
G1 X-34.7469
G1 X-36.7225
G1 Y1.975
G1 Y0.9872
G0 Z3.0
G0 X-24.8692 Y-0.9883
G0 Z1.4
G1 F300.0 Z0.0
G1 F800.0 Y-1.9761
G1 Y-2.9639
G1 X-22.8936
G1 X-20.918
G1 Y-6.915
G1 Y-10.8661
G1 X-18.9425
G1 X-16.9669
G1 Y-6.915
G1 Y-2.9639
G1 X-14.9914
G1 X-13.0158
G1 Y-1.9761
G1 Y-0.9883
G1 X-14.9914
G1 X-16.9669
G1 Y0.9872
G1 Y2.9628
G1 X-18.9425
G1 X-20.918
G1 Y0.9872
G1 Y-0.9883
G1 X-22.8936
G1 X-24.8692
G0 Z3.0
G0 X-10.7543 Y-9.872
G0 Z1.4
G1 F300.0 Z0.0
G1 F800.0 X-10.4495 Y-10.0847
G3 X-9.3406 Y-10.7646 I6.861 J9.9468
G3 X-8.7504 Y-11.0418 I3.017 J5.6554
G3 X-8.4429 Y-11.1515 I1.8475 J4.6939
G3 X-8.1261 Y-11.2302 I0.7293 J2.259
G1 X-7.9752 Y-11.2571
G1 X-7.8287 Y-11.2806
G3 X-7.544 Y-11.3203 I1.6611 J10.8746
G3 X-7.0083 Y-11.3787 I3.0012 J25.0347
G3 X-6.0678 Y-11.4468 I2.0396 J21.6449
G1 X-5.7146 Y-11.4643
G1 X-5.56 Y-11.4709
G3 X-4.9802 Y-11.4905 I1.2839 J29.3782
G1 X-4.5453 Y-11.5006
G1 X-4.3821 Y-11.5035
G1 X-4.0966 Y-11.5075
G1 X-3.6683 Y-11.5112
G1 X-3.5612 Y-11.5118
G3 X-3.4809 Y-11.512 I0.0436 J0.9529
G1 X-3.2401 Y-11.5124
G1 X9.0718 Y-10.6834
G1 X9.0542
G1 X-3.2401 Y-11.5124
G0 Z3.0
G0 X-4.6336 Y-9.4839
G0 Z1.4
G1 F300.0 Z0.0
G2 F800.0 X-4.8762 Y-9.4816 I-0.0494 J7.4302
G2 X-5.7871 Y-9.4215 I0.1421 J9.0886
G2 X-6.4734 Y-9.2979 I0.6025 J5.3143
G2 X-6.9778 Y-9.1325 I0.8127 J3.3284
G1 X-7.0697 Y-9.0916
G2 X-7.397 Y-8.9039 I0.8033 J1.7793
G2 X-7.7923 Y-8.499 I0.8284 J1.2043
G2 X-7.985 Y-7.967 I1.1253 J0.7084
G1 X-6.5209 Y-2.1021
G1 X-7.985 Y-7.967
G0 Z3.0
G0 X-6.5209 Y-2.1021
G0 Z1.0
G1 F300.0 Z0.0
G1 F800.0 X-6.5033 Y-2.0447
G1 X-6.4944 Y-2.016
G1 X-6.49 Y-2.0017
G3 X-6.4857 Y-1.9874 I-0.0869 J0.0344
G1 X-6.4519 Y-1.8763
G3 X-6.4353 Y-1.8215 I-0.6213 J0.2178
G1 X-6.3053 Y-1.3869
G1 X-6.1851 Y-0.9789
G1 X-5.9626 Y-0.2132
G1 X-5.8661 Y0.1221
G3 X-5.1519 Y2.6389 I-624.1387 J178.4692
G1 X-4.7973 Y3.8981
G2 X-4.7751 Y3.9768 I1.4268 J-0.3599
G1 X-4.6082 Y4.5669
G1 X-4.4395 Y5.1563
G1 X-4.3985 Y5.2968
G1 X-4.3785 Y5.3648
G1 X-4.2161 Y5.8989
G1 X-4.1429 Y6.132
G1 X-3.8637 Y7.0042
G3 X-3.1078 Y9.6454 I-37.1259 J12.0534
G1 X-2.9116 Y10.4434
G1 X-2.7417 Y11.1421
G1 X-2.5944 Y11.7538
G1 X-2.4668 Y12.2893
G1 X-2.2469 Y13.2273
G1 X-2.2063 Y13.4033
G1 X-2.056 Y14.0638
G1 X-1.9463 Y14.5599
G1 X-1.906 Y14.7461
G1 X-1.8372 Y15.0725
G1 X-1.812 Y15.195
G1 X-1.7904 Y15.3023
G1 X-1.7718 Y15.3963
G1 X-1.7105 Y15.7257
G3 X-1.6833 Y15.8911 I-2.7873 J0.5429
G1 X-1.6614 Y16.0572
G1 X-1.6522 Y16.1598
G3 X-1.644 Y16.5459 I-3.2181 J0.2617
G3 X-1.7331 Y17.1178 I-2.364 J-0.0757
G3 X-1.8299 Y17.391 I-2.1052 J-0.5921
G1 X-1.889 Y17.5233
G3 X-1.8968 Y17.5397 I-0.0886 J-0.0319
G1 X-1.9525 Y17.6535
G3 X-2.0721 Y17.825 I-0.7229 J-0.3768
G3 X-2.3516 Y18.0559 I-1.0676 J-1.0077
G3 X-2.8344 Y18.3028 I-1.6107 J-2.5543
G1 X-2.9605 Y18.3527
G3 X-3.3459 Y18.4825 I-2.2712 J-6.1051
G2 X-4.1379 Y18.7761 I1.8474 J6.1988
G2 X-4.3293 Y18.8652 I5.3129 J11.6605
G1 X-4.4712 Y18.9357
G2 X-4.8893 Y19.1616 I7.1226 J13.6844
G2 X-5.2815 Y19.4318 I1.2522 J2.2373
G3 X-5.4686 Y19.5832 I-2.0481 J-2.3394
G3 X-5.5738 Y19.6443 I-0.3794 J-0.533
G3 X-5.6919 Y19.6732 I-0.1485 J-0.3513
G1 X-5.8812 Y19.6886
G3 X-5.905 Y19.69 I-0.0219 J-0.1676
G3 X-6.0711 Y19.6908 I-0.0923 J-2.0522
G3 X-6.2335 Y19.6592 I0.0192 J-0.5316
G3 X-6.371 Y19.5673 I0.1052 J-0.3063
G1 X-6.4356 Y19.4952
G3 X-6.5453 Y19.3654 I1.8852 J-1.7052
G3 X-6.6711 Y19.1426 I0.6366 J-0.5065
G3 X-6.6973 Y18.8882 I0.5095 J-0.181
G3 X-6.6468 Y18.7311 I0.5171 J0.0797
G3 X-6.4789 Y18.5008 I0.959 J0.5227
G3 X-6.1645 Y18.2127 I2.4023 J2.306
G1 X-5.833 Y17.9445
G1 X-5.6308 Y17.7843
G1 X-5.4524 Y17.6459
G1 X-5.3741 Y17.5857
G1 X-5.0798 Y17.3609
G1 X-4.6368 Y17.0257
G1 X-4.1926 Y16.6922
G1 X-4.6243 Y14.3709
G1 X-4.8442 Y13.211
G1 X-4.9565 Y12.6315
G1 X-5.0141 Y12.342
G1 X-5.0745 Y12.0532
G3 X-5.6781 Y9.2141 I864.468 J-185.2472
G1 X-6.274 Y6.3734
G1 X-6.7377 Y4.634
G1 X-7.0822 Y3.3286
G1 X-7.2105 Y2.8388
G1 X-7.4336 Y1.9814
G1 X-7.7646 Y0.6943
G1 X-8.0908 Y-0.5939
G1 X-8.1643 Y-0.8865
G1 X-8.3086 Y-1.453
G1 X-8.4463 Y-1.9835
G2 X-10.7543 Y-9.872 I-141.2756 J37.0523
G0 Z3.0
G0 X-1.5115 Y-9.237
G0 Z1.4
G1 F300.0 Z0.0
G1 F800.0 X-1.9005 Y-9.2827
G2 X-2.5819 Y-9.356 I-10.0674 J90.4153
G2 X-3.6062 Y-9.4437 I-3.8187 J38.5878
G1 X-3.8628 Y-9.4596
G1 X-3.911 Y-9.4623
G2 X-4.6336 Y-9.4839 I-0.7409 J12.6466
G0 Z3.0
G0 X1.4518 Y-8.99
G0 Z1.4
G1 F300.0 Z0.0
G1 F800.0 X3.0393 Y-9.043
G1 X2.9512
G1 X1.5753 Y-8.99
G1 X1.4518
G1 X1.2659 Y-8.9925
G3 X1.2223 Y-8.9937 I-0.0154 J-0.2354
G1 X1.0509 Y-9.0002
G1 X0.7296 Y-9.0181
G3 X0.5891 Y-9.0277 I0.4008 J-6.8953
G1 X0.326 Y-9.0479
G1 X0.0959 Y-9.0675
G1 X-0.3064 Y-9.1054
G1 X-0.9093 Y-9.1684
G3 X-1.2105 Y-9.2021 I2.609 J-24.6878
G1 X-1.2482 Y-9.2064
G1 X-1.3799 Y-9.2216
G1 X-1.4457 Y-9.2293
G1 X-1.5115 Y-9.237
G0 Z3.0
G0 X5.4559 Y-8.9548
G0 Z1.4
G1 F300.0 Z0.0
G1 F800.0 X4.2479 Y-9.0072
G1 X3.6438 Y-9.0295
G1 X3.3416 Y-9.0383
G1 X3.0393 Y-9.043
G0 Z3.0
G0 X7.9606 Y-8.8666
G0 Z1.4
G1 F300.0 Z0.0
G3 F800.0 X7.6473 Y-8.8685 I-0.0958 J-9.8459
G3 X5.4559 Y-8.9548 I0.8059 J-48.3545
G0 Z3.0
G0 X9.0718 Y-10.6834
G0 Z1.0
G1 F300.0 Z0.0
G1 F800.0 X9.1225 Y-10.6907
G1 X9.1476 Y-10.6934
G1 X9.5457 Y-10.7275
G3 X10.9402 Y-10.8316 I16.5664 J212.7056
G1 X11.6376 Y-10.8813
G1 X12.335 Y-10.9303
G1 X12.8109 Y-10.9645
G3 X14.4769 Y-11.0738 I10.2411 J143.2384
G3 X15.3106 Y-11.118 I4.3486 J74.2861
G1 X15.7277 Y-11.1343
G1 X15.9364 Y-11.1397
G1 X16.0407 Y-11.1414
G1 X16.145 Y-11.142
G1 X16.2422 Y-11.1415
G3 X16.5331 Y-11.1243 I0.0247 J2.0603
G1 X16.3214 Y-10.0307
G1 X16.5331 Y-11.1243
G0 Z3.0
G0 X16.3214 Y-10.0307
G0 Z1.0
G1 F300.0 Z0.0
G1 F800.0 X15.8033 Y-9.9287
G3 X15.3172 Y-9.835 I-5.7768 J-28.6365
G3 X13.4908 Y-9.502 I-23.2033 J-122.1034
G1 X13.405 Y-9.4872
G1 X13.3205 Y-9.4728
G1 X12.6549 Y-9.362
G3 X11.4876 Y-9.1836 I-12.2285 J-76.1072
G3 X9.7292 Y-8.9678 I-5.4155 J-36.8509
G1 X9.288 Y-8.928
G1 X9.1223 Y-8.915
G1 X9.0498 Y-8.9098
G3 X8.7778 Y-8.8922 I-0.5516 J-6.4327
G1 X8.6757 Y-8.8866
G3 X8.6533 Y-8.8855 I-0.0173 J-0.1183
G3 X7.9606 Y-8.8666 I-0.7061 J-13.1714
G0 Z3.0
G0 X14.1587 Y-4.6793
G0 Z1.4
G1 F300.0 Z0.0
G1 F800.0 X15.2529 Y-4.5919
G1 X14.1587 Y-4.6793
G2 X14.0801 Y-4.5759 I0.8586 J0.7337
G2 X13.8357 Y-4.1554 I3.2626 J2.1777
G2 X13.5377 Y-3.4901 I7.9313 J3.9526
G2 X13.2871 Y-2.8053 I10.2988 J4.1569
G2 X13.2064 Y-2.5591 I7.7108 J2.6638
G1 X13.1307 Y-2.3198
G1 X12.9881 Y-1.8549
G2 X12.4736 Y-0.1058 I161.982 J48.5964
G1 X12.2847 Y0.5514
G2 X12.2435 Y0.6952 I4.1098 J1.2541
G1 X11.6104 Y2.9254
G1 X11.2951 Y4.0409
G1 X10.9773 Y5.1556
G3 X10.8946 Y5.4364 I-8.1447 J-2.2434
G1 X10.734 Y5.9613
G1 X10.5888 Y6.4192
G1 X10.332 Y7.2196
G1 X10.2845 Y7.3699
G2 X10.2624 Y7.4404 I0.7277 J0.2671
G1 X10.0949 Y7.988
G2 X9.8597 Y8.814 I35.3437 J10.5115
G1 X9.7496 Y9.2291
G1 X9.6964 Y9.4372
G1 X9.6442 Y9.6454
G1 X9.6196 Y9.7451
G1 X9.4272 Y10.5304
G1 X9.3854 Y10.7022
G1 X9.345 Y10.8688
G2 X8.7354 Y13.4533 I253.1414 J61.0779
G2 X8.5893 Y14.101 I60.2382 J13.9228
G1 X8.5356 Y14.3441
G1 X8.524 Y14.3974
G2 X8.3497 Y15.2234 I42.4111 J9.3798
G1 X8.3291 Y15.327
G1 X8.2609 Y15.69
G2 X8.2061 Y16.0553 I5.0938 J0.9501
G2 X8.2036 Y16.0811 I0.0868 J0.0217
G2 X8.1893 Y16.284 I3.6057 J0.3562
G2 X8.2439 Y16.9925 I2.6835 J0.1493
G2 X8.3471 Y17.3333 I2.5418 J-0.5837
G1 X8.3806 Y17.4158
G2 X8.4353 Y17.5377 I2.5271 J-1.0601
G2 X8.4642 Y17.5979 I0.579 J-0.2408
G1 X8.4938 Y17.6578
G2 X8.6138 Y17.829 I0.658 J-0.3338
G2 X8.8947 Y18.0579 I1.0075 J-0.9492
G2 X9.3789 Y18.3014 I1.6201 J-2.6189
G2 X9.8908 Y18.4796 I2.1787 J-5.4353
G3 X10.6815 Y18.7726 I-1.7431 J5.9171
G3 X11.4316 Y19.1575 I-3.8447 J8.4154
G3 X11.8233 Y19.4283 I-1.3006 J2.3001
G2 X12.0098 Y19.5805 I2.3304 J-2.6646
G2 X12.2329 Y19.6711 I0.2674 J-0.3385
G2 X12.4074 Y19.6858 I0.383 J-3.5042
G2 X12.5398 Y19.6912 I0.225 J-3.923
G2 X12.7385 Y19.6695 I0.0193 J-0.7429
G2 X12.9108 Y19.5684 I-0.0778 J-0.3301
G1 X13.0395 Y19.4238
G2 X13.1993 Y19.1795 I-0.7459 J-0.6621
G2 X13.2395 Y18.8904 I-0.4969 J-0.2166
G2 X13.1891 Y18.7333 I-0.4612 J0.0613
G2 X13.0217 Y18.5025 I-0.9382 J0.5045
G2 X12.7079 Y18.2138 I-2.3045 J2.1897
G1 X12.3767 Y17.9454
G1 X12.1741 Y17.785
G1 X11.9954 Y17.6465
G1 X11.3658 Y17.1672
G1 X11.2868 Y17.1076
G1 X10.7331 Y16.6922
G1 X11.1656 Y14.3689
G1 X11.3858 Y13.208
G1 X11.4983 Y12.628
G1 X11.556 Y12.3383
G1 X11.6165 Y12.0491
G1 X11.8246 Y11.0847
G1 X12.1841 Y9.3958
G1 X12.7186 Y6.8615
G1 X12.9828 Y5.5937
G1 X12.9992 Y5.5144
G1 X13.0605 Y5.2171
G1 X13.1514 Y4.7711
G1 X13.1962 Y4.5478
G2 X13.2395 Y4.3244 I-5.5969 J-1.2025
G1 X13.2798 Y4.1158
G3 X13.9421 Y0.8907 I364.743 J73.2175
G1 X14.2784 Y-0.7208
G3 X14.3627 Y-1.1237 I166.5368 J34.6377
G1 X14.4893 Y-1.7279
G3 X14.5526 Y-2.03 I13.0015 J2.5693
G1 X14.616 Y-2.332
G2 X14.9585 Y-2.3774 I0.0286 J-1.1
G2 X15.1189 Y-2.4462 I-0.1846 J-0.6512
G2 X15.2529 Y-2.558 I-0.2688 J-0.4585
G2 X15.334 Y-2.6928 I-0.4586 J-0.3677
G2 X15.4073 Y-2.9558 I-1.1337 J-0.4578
G2 X15.4288 Y-3.1591 I-2.6342 J-0.3813
G2 X15.3967 Y-3.7701 I-3.0696 J-0.1451
G2 X15.2529 Y-4.5919 I-15.463 J2.2826
G0 Z3.0
G0 X19.1474 Y-9.7498
G0 Z1.4
G1 F300.0 Z0.0
G2 F800.0 X19.1931 Y-9.3386 I1.804 J0.0077
G2 X19.3062 Y-8.9719 I2.3841 J-0.5347
G2 X19.6435 Y-8.3422 I3.2125 J-1.3152
G2 X20.0218 Y-7.8481 I3.9436 J-2.6277
G2 X20.7882 Y-7.0773 I6.0253 J-5.2243
G2 X21.4149 Y-6.5565 I8.7689 J-9.9149
G1 X21.6576 Y-6.371
G1 X21.8728 Y-6.2124
G1 X22.063 Y-6.0763
G1 X22.2308 Y-5.9591
G2 X22.8267 Y-5.5616 I9.6441 J-13.8122
G1 X22.9775 Y-5.465
G2 X23.0911 Y-5.3933 I1.5812 J-2.3763
G1 X23.262 Y-5.2867
G1 X23.4337 Y-5.1814
G1 X23.6114 Y-5.0728
G1 X23.7843 Y-4.9686
G2 X24.4594 Y-4.574 I12.7426 J-21.0291
G1 X24.758 Y-4.4064
G2 X25.8968 Y-3.8125 I10.6509 J-19.0331
G2 X26.775 Y-3.4132 I7.1017 J-14.454
G2 X27.4501 Y-3.1503 I5.5418 J-13.2326
G2 X28.493 Y-2.8436 I2.9133 J-7.9783
G2 X28.7598 Y-2.7898 I1.0285 J-4.4192
G1 X28.9614 Y-2.7575
G1 X29.1134 Y-2.7384
G2 X29.572 Y-2.7119 I0.5103 J-4.8561
G2 X30.4907 Y-3.0174 I-0.0123 J-1.571
G2 X30.8549 Y-3.3389 I-1.3468 J-1.893
G2 X31.0139 Y-3.5228 I-2.1478 J-2.0165
G2 X31.0882 Y-3.6189 I-0.9667 J-0.825
G2 X31.1242 Y-3.6679 I-0.5923 J-0.4737
G2 X31.1595 Y-3.7173 I-0.5302 J-0.4152
G1 Y-4.4758
G1 Y-3.7173
G0 Z3.0
G0 Y-4.4758
G0 Z1.0
G1 F300.0 Z0.0
G2 F800.0 X31.0049 Y-4.67 I-1.3415 J0.9095
G2 X30.7106 Y-4.8992 I-0.8096 J0.736
G2 X30.3481 Y-4.9873 I-0.3581 J0.6834
G2 X30.2683 Y-4.9704 I0.0589 J0.4747
G2 X30.0015 Y-4.8703 I0.7995 J2.5358
G1 X29.7396 Y-4.758
G1 X29.5864 Y-4.6917
G1 X29.4708 Y-4.6436
G3 X29.4271 Y-4.626 I-0.2297 J-0.5083
G3 X29.3504 Y-4.5963 I-0.3049 J-0.673
G3 X29.234 Y-4.5554 I-0.5192 J-1.2939
G3 X29.1134 Y-4.5287 I-0.162 J-0.4455
G3 X28.8913 Y-4.5548 I0.0142 J-1.0812
G1 X28.7896 Y-4.5784
G3 X28.6922 Y-4.6054 I0.3322 J-1.3863
G1 X28.5988 Y-4.6345
G3 X27.8955 Y-4.9166 I2.2358 J-6.5934
G3 X26.8789 Y-5.4239 I7.3908 J-16.0832
G3 X25.8855 Y-5.9751 I15.3231 J-28.7852
G1 X25.7822 Y-6.0337
G1 X25.3828 Y-6.2622
G1 X25.2085 Y-6.363
G1 X24.8827 Y-6.5536
G1 X24.7405 Y-6.6377
G1 X24.4748 Y-6.7968
G3 X24.0128 Y-7.0801 I14.6495 J-24.4072
G3 X23.3304 Y-7.5222 I10.3803 J-16.7704
G3 X22.9974 Y-7.7555 I4.4572 J-6.7165
G3 X22.6752 Y-8.0036 I4.697 J-6.433
G3 X22.3286 Y-8.343 I2.4543 J-2.8528
G3 X21.9038 Y-8.9332 I2.3362 J-2.1297
G3 X21.6345 Y-9.6087 I2.4217 J-1.3567
G3 X22.3087 Y-10.0451 I1.4786 J1.5455
G3 X23.0985 Y-10.1908 I0.7674 J1.9462
G3 X23.2385 Y-10.1727 I-0.0374 J0.8369
G3 X23.5031 Y-10.1068 I-0.8257 J3.8822
G3 X23.9914 Y-9.9562 I-3.2006 J11.2458
G1 X24.2036 Y-9.8856
G1 X24.3028 Y-9.8519
G3 X25.0686 Y-9.5819 I-14.7422 J43.0326
G1 X25.3548 Y-9.4778
G1 X25.8547 Y-9.2932
G1 X26.0419 Y-9.2233
G1 X26.3692 Y-9.1003
G1 X27.3495 Y-8.7268
G2 X27.6305 Y-8.6174 I16.4187 J-41.7768
G1 X28.1584 Y-8.4146
G2 X29.0856 Y-8.0686 I22.8538 J-59.8225
G1 X29.2602 Y-8.0052
G1 X29.424 Y-7.9464
G1 X29.5779 Y-7.8919
G2 X30.7397 Y-7.5065 I9.7066 J-27.3231
G1 X30.8866 Y-7.4628
G2 X31.4052 Y-7.325 I2.4797 J-8.29
G2 X31.6684 Y-7.2718 I1.1311 J-4.9177
G2 X31.9356 Y-7.2451 I0.3092 J-1.7431
G2 X32.1629 Y-7.251 I-0.0157 J-5.0073
G2 X32.559 Y-7.2946 I-0.1963 J-3.6039
G2 X33.1311 Y-7.4702 I-0.3617 J-2.1982
G2 X33.6113 Y-7.8272 I-0.6164 J-1.3307
G2 X33.7371 Y-8.0177 I-1.4726 J-1.1094
G2 X33.9368 Y-8.3634 I-9.8513 J-5.919
G1 X34.0824 Y-8.6251
G1 X34.1904 Y-8.8221
G1 X34.5109 Y-9.4147
G3 X35.922 Y-11.3902 I8.097 J4.2918
G1 Y-12.184
G1 Y-11.3902
G0 Z3.0
G0 Y-12.184
G0 Z1.0
G1 F300.0 Z0.0
G1 F800.0 X35.8464 Y-12.2821
G2 X35.5257 Y-12.5728 I-1.0415 J0.8271
G2 X35.1106 Y-12.6955 I-0.4205 J0.6587
G2 X35.0317 Y-12.6748 I0.0181 J0.2293
G2 X34.8968 Y-12.5972 I0.3222 J0.7167
G2 X34.4457 Y-12.2296 I2.5208 J3.5539
G2 X34.2851 Y-12.0819 I4.185 J4.7127
G1 X34.2503 Y-12.0492
G1 X34.1164 Y-11.9217
G2 X33.8851 Y-11.6954 I8.154 J8.5681
G2 X33.2056 Y-11.0022 I21.4747 J21.7277
G1 X32.9648 Y-10.7516
G1 X32.7507 Y-10.5351
G3 X31.9668 Y-9.812 I-8.3341 J-8.2479
G3 X31.7558 Y-9.645 I-2.9474 J-3.5086
G3 X31.4191 Y-9.4211 I-1.8202 J-2.3726
G1 X31.3287 Y-9.374
G1 X31.2588 Y-9.343
G3 X31.036 Y-9.2912 I-0.2436 J-0.5431
G2 X30.9787 Y-9.3208 I-0.1399 J0.2002
G2 X30.5086 Y-9.5109 I-5.5937 J13.1614
G1 X29.6807 Y-9.8305
G1 X28.4363 Y-10.3032
G1 X27.1908 Y-10.7729
G1 X26.8844 Y-10.8863
G1 X26.5967 Y-10.9916
G1 X26.0562 Y-11.1858
G1 X25.8192 Y-11.2694
G1 X25.5965 Y-11.3468
G1 X25.3875 Y-11.4185
G2 X24.9947 Y-11.5504 I-5.6773 J16.2559
G1 X24.6499 Y-11.6626
G2 X23.432 Y-12.0203 I-6.849 J21.0731
G2 X23.1233 Y-12.0961 I-3.6512 J14.1851
G1 X22.8904 Y-12.1469
G1 X22.8026 Y-12.1642
G2 X22.6484 Y-12.1916 I-0.9366 J4.8325
G2 X22.4158 Y-12.2233 I-0.5657 J3.2847
G2 X22.1813 Y-12.2369 I-0.2459 J2.2028
G2 X21.641 Y-12.1608 I0.0162 J2.0724
G2 X21.2564 Y-12.0233 I0.6614 J2.4551
G2 X20.7188 Y-11.7314 I1.4937 J3.3918
G2 X20.2234 Y-11.3726 I3.0235 J4.6966
G1 X20.1271 Y-11.2936
G1 X20.0382 Y-11.2177
G2 X19.7212 Y-10.9141 I3.1522 J3.6078
G2 X19.326 Y-10.3854 I1.8924 J1.8269
G2 X19.1966 Y-10.0789 I1.4995 J0.8138
G2 X19.1474 Y-9.7498 I1.1067 J0.3335
G0 Z3.0
G0 X37.7741 Y-11.743
G0 Z1.4
G1 F300.0 Z0.0
G2 F800.0 X37.9809 Y-11.314 I4.4533 J-1.8818
G2 X38.0712 Y-11.1589 I2.3878 J-1.2868
G2 X38.4598 Y-10.6661 I2.1236 J-1.275
G2 X38.9912 Y-10.3319 I1.0173 J-1.028
G2 X39.2396 Y-10.2581 I1.8156 J-5.6537
G2 X39.3571 Y-10.2275 I0.4221 J-1.3795
G2 X39.8164 Y-10.1257 I1.8841 J-7.419
G2 X40.6282 Y-9.9896 I3.1128 J-16.0705
G2 X41.2402 Y-9.9092 I2.5562 J-17.0977
G1 X41.7002 Y-9.8574
G1 X42.0457 Y-9.8223
G1 X42.1753 Y-9.8098
G1 X42.4022 Y-9.7889
G1 X42.7428 Y-9.7595
G1 X42.8279 Y-9.7525
G2 X42.8918 Y-9.7473 I0.093 J-0.7495
G1 X43.0834 Y-9.7322
G1 X43.3032 Y-9.7148
G3 X45.0048 Y-9.5622 I-9.4663 J115.1539
G1 X45.6425 Y-9.5007
G1 X46.2004 Y-9.4458
G1 X46.4445 Y-9.4215
G1 X47.3595 Y-9.3292
G1 X48.7317 Y-9.1879
G1 X50.1037 Y-9.0443
G3 X50.7981 Y-8.9261 I-0.9253 J7.5359
G3 X50.9485 Y-8.8929 I-0.4827 J2.5437
G3 X52.1002 Y-8.5817 I-3.6474 J15.7871
G3 X53.7954 Y-8.0094 I-9.6801 J31.4681
G3 X55.4659 Y-7.3686 I-18.8816 J51.7195
G3 X55.748 Y-7.2544 I-3.5971 J9.296
G3 X56.0118 Y-7.1447 I-3.2471 J8.1758
G3 X56.2584 Y-7.0391 I-2.9105 J7.1398
G3 X56.4888 Y-6.9376 I-2.7453 J6.5424
G3 X56.7041 Y-6.8399 I-2.6182 J6.0554
G3 X57.5006 Y-6.4481 I-5.7537 J12.7019
G3 X57.7949 Y-6.2871 I-4.4553 J8.4938
G3 X57.8589 Y-6.2505 I-0.4851 J0.9234
G3 X58.3441 Y-5.9493 I-3.6205 J6.3747
G3 X58.6924 Y-5.6945 I-2.9083 J4.3408
G3 X58.9376 Y-5.4799 I-2.2197 J2.7833
G3 X59.2509 Y-5.1022 I-1.3384 J1.4289
G3 X59.3576 Y-4.8787 I-0.948 J0.5899
G3 X59.3994 Y-4.6345 I-0.6914 J0.2439
G1 Y-4.564
G3 X59.265 Y-4.1757 I-0.9387 J-0.1074
G3 X59.0443 Y-3.9011 I-1.2892 J-0.8103
G3 X58.5547 Y-3.5344 I-1.7594 J-1.8386
G3 X58.4555 Y-3.4772 I-0.7821 J-1.2435
G3 X58.0713 Y-3.2856 I-2.4571 J-4.4456
G3 X57.4728 Y-3.0485 I-3.2863 J-7.4206
G1 X57.3205 Y-2.9963
G3 X57.2057 Y-2.9587 I-0.8769 J-2.4821
G3 X56.8594 Y-2.853 I-2.2883 J-6.878
G3 X55.0799 Y-2.4456 I-4.3447 J-14.8875
G3 X54.1737 Y-2.3301 I-2.0733 J-12.6465
G3 X53.261 Y-2.2886 I-0.9347 J-10.5042
G3 X53.1459 Y-2.2915 I-0.0068 J-1.975
G3 X53.0317 Y-2.3062 I0.016 J-0.5761
G1 X41.2137 Y-4.5287
G1 X53.0317 Y-2.3062
G0 Z3.0
G0 X51.7441 Y-1.0009
G0 Z1.4
G1 F300.0 Z0.0
G1 F800.0 X45.0942 Y-1.8652
G1 X51.7441 Y-1.0009
G1 X52.0832 Y-0.9575
G2 X52.6768 Y-0.8824 I9.804 J-75.1106
G1 X53.5676 Y-0.7734
G1 X54.0134 Y-0.7225
G2 X54.2367 Y-0.6995 I0.9197 J-7.8271
G2 X54.2926 Y-0.6943 I0.0813 J-0.5733
G2 X54.4605 Y-0.6834 I0.3807 J-4.5605
G2 X55.6128 Y-0.7383 I0.0307 J-11.4865
G2 X57.3156 Y-1.0436 I-1.0413 J-10.7098
G2 X58.9408 Y-1.6359 I-2.4804 J-9.3306
G2 X59.0018 Y-1.6649 I-0.4066 J-0.9375
G2 X59.4735 Y-1.9114 I-3.6513 J-7.5607
G2 X60.2446 Y-2.4387 I-2.55 J-4.5557
G2 X60.747 Y-2.9327 I-2.418 J-2.9623
G2 X61.283 Y-3.8416 I-2.3148 J-1.9776
G2 X61.4631 Y-4.8815 I-2.7808 J-1.0171
G2 X61.3436 Y-5.4353 I-1.4301 J0.0188
G2 X61.1051 Y-5.8615 I-2.0763 J0.8821
G2 X60.8407 Y-6.195 I-2.8794 J2.0112
G2 X60.3086 Y-6.714 I-4.0199 J3.5892
G2 X59.4228 Y-7.3894 I-6.4668 J7.563
G1 X59.394 Y-7.409
G2 X58.4822 Y-7.9859 I-8.8693 J13.0099
G2 X56.3813 Y-9.1124 I-11.7121 J19.3215
G2 X55.2856 Y-9.5834 I-7.6971 J16.3937
G1 X55.1466 Y-9.6372
G2 X54.1606 Y-9.9791 I-5.745 J14.9745
G2 X53.5723 Y-10.1456 I-4.5126 J14.8268
G1 X53.3132 Y-10.2122
G2 X53.1914 Y-10.2422 I-0.5318 J1.8943
G1 X52.9551 Y-10.2983
G1 X52.8441 Y-10.3238
G1 X52.413 Y-10.4172
G1 X52.0344 Y-10.4929
G1 X51.8684 Y-10.5243
G2 X51.7126 Y-10.5529 I-0.7293 J3.534
G2 X49.3628 Y-10.8964 I-6.6613 J37.3628
G1 X49.2863 Y-10.9062
G1 X48.9849 Y-10.9434
G1 X48.7022 Y-10.9772
G1 X47.6417 Y-11.1007
G1 X46.0506 Y-11.2818
G1 X44.4592 Y-11.4608
G1 X44.3731 Y-11.4714
G3 X43.7093 Y-11.5767 I2.8252 J-19.9681
G1 X43.4609 Y-11.6197
G3 X43.3522 Y-11.6389 I0.2305 J-1.6272
G1 X42.5384 Y-11.786
G1 X41.7252 Y-11.937
G1 X41.5642 Y-11.9662
G2 X40.3537 Y-12.1623 I-5.3432 J29.1466
G1 X40.0496 Y-12.2023
G2 X39.5919 Y-12.2502 I-1.4921 J12.0495
G2 X39.3624 Y-12.2658 I-0.398 J4.1511
G2 X39.1323 Y-12.2722 I-0.3024 J6.7389
G2 X38.9488 Y-12.2533 I0.0148 J1.0459
G2 X38.6395 Y-12.1652 I0.408 J2.0196
G2 X38.198 Y-11.9721 I1.4316 J3.8736
G2 X37.9843 Y-11.8607 I2.1198 J4.3297
G2 X37.7741 Y-11.743 I6.5031 J11.8591
G0 Z3.0
G0 X38.7266 Y-4.0348
G0 Z1.4
G1 F300.0 Z0.0
G1 F800.0 Y0.763
G1 Y-4.0348
G0 Z3.0
G0 X40.9844 Y-4.5464
G0 Z1.4
G1 F300.0 Z0.0
G2 F800.0 X40.4068 Y-4.4858 I0.06 J3.3598
G2 X39.5594 Y-4.2875 I1.7468 J9.3731
G2 X39.3501 Y-4.228 I1.9266 J7.1735
G1 X39.0376 Y-4.1338
G1 X38.7266 Y-4.0348
G0 Z3.0
G0 X41.2137 Y-4.5287
G0 Z1.0
G1 F300.0 Z0.0
G2 F800.0 X40.9844 Y-4.5464 I-0.2103 J1.234
G0 Z3.0
G0 X41.884 Y-2.2709
G0 Z1.4
G1 F300.0 Z0.0
G1 F800.0 X41.9848 Y-2.263
G1 X42.374 Y-2.2183
G1 X42.7143 Y-2.176
G1 X43.3095 Y-2.0999
G1 X43.7558 Y-2.0419
G1 X45.0942 Y-1.8652
G0 Z3.0
G0 X41.1255 Y-1.83
G0 Z1.4
G1 F300.0 Z0.0
G3 F800.0 X41.2798 Y-1.9938 I1.2406 J1.0137
G3 X41.5553 Y-2.1903 I0.7945 J0.8227
G3 X41.884 Y-2.2709 I0.337 J0.6634
G0 Z3.0
G0 X40.7551 Y-1.0715
G0 Z1.4
G1 F300.0 Z0.0
G3 F800.0 X40.8718 Y-1.4842 I0.8625 J0.021
G3 X41.1255 Y-1.83 I1.5467 J0.8689
G0 Z3.0
G0 X40.7551 Y-1.0186
G0 Z1.4
G1 F300.0 Z0.0
G1 F800.0 X41.9898 Y17.661
G1 X40.7551 Y-1.0186
G1 Y-1.0715
G0 Z3.0
G0 X38.7266 Y0.763
G0 Z1.0
G1 F300.0 Z0.0
G2 F800.0 X38.7558 Y2.3523 I48.7879 J-0.103
G2 X38.8683 Y4.7339 I88.0717 J-2.9648
G1 X38.8861 Y5.0314
G1 X38.9187 Y5.552
G1 X38.9314 Y5.7472
G1 X38.9542 Y6.0887
G1 X39.0265 Y7.113
G1 X39.7849 Y17.3082
G1 X39.0265 Y7.113
G0 Z3.0
G0 X39.7849 Y17.3082
G0 Z1.0
G1 F300.0 Z0.0
G2 F800.0 X39.9812 Y18.7494 I10.379 J-0.6795
G2 X40.1683 Y19.4535 I6.3377 J-1.3068
G2 X40.4376 Y20.1305 I5.1276 J-1.6479
G1 X41.4606
G1 X40.4376
G0 Z3.0
G0 X41.4606
G0 Z1.0
G1 F300.0 Z0.0
G2 F800.0 X41.8863 Y19.1389 I-2.6457 J-1.7231
G2 X42.0074 Y18.0667 I-4.3453 J-1.0337
G1 X42.0064 Y17.9651
G2 X42.0008 Y17.8129 I-9.1136 J0.2613
G2 X41.9898 Y17.661 I-1.8879 J0.0599
G0 Z3.0
M5
M30
