( Made using CamBam - http://www.cambam.co.uk )
( drawing 11/18/2014 1:38:35 PM )
( T0 : 0.0 )
(G21 G90 G64 G40)
G0 Z3.0
( T0 : 0.0 )
(T0 M6)
( Profile1 )
G17
M3 S1000
G0 X-41.1568 Y-7.8334
G0 Z1.4
G1 F300.0 Z0.0
G1 F800.0 X-44.1201
G1 X-47.0834
G1 Y-4.8701
G1 Y-1.9068
G1 X-44.1201
G1 X-41.1568
G1 Y-4.8701
G1 Y-7.8334
G0 Z3.0
G0 Y-9.809
G0 Z1.4
G1 F300.0 Z0.0
G1 F800.0 X-39.1812
G1 Y-8.8212
G1 Y-7.8334
G1 X-38.1934
G1 X-37.2057
G1 Y-4.8701
G1 Y-1.9068
G1 X-38.1934
G1 X-39.1812
G1 Y-0.919
G1 Y0.0688
G1 X-43.1323
G1 X-47.0834
G1 Y2.0444
G1 Y4.0199
G1 X-49.059
G1 X-51.0346
G1 Y-1.9068
G1 Y-7.8334
G1 X-50.0468
G1 X-49.059
G1 Y-8.8212
G1 Y-9.809
G1 X-44.1201
G1 X-41.1568
G0 Z3.0
G0 X-33.2546
G0 Z1.4
G1 F300.0 Z0.0
G1 F800.0 X-27.3279
G1 X-21.4012
G1 Y-8.8212
G1 Y-7.8334
G1 X-23.3768
G1 X-25.3523
G1 Y-3.8823
G1 Y0.0688
G1 X-28.3157
G1 X-31.279
G1 Y-0.919
G1 Y-1.9068
G1 X-30.2912
G1 X-29.3034
G1 Y-4.8701
G1 Y-7.8334
G1 X-31.279
G1 X-33.2546
G1 Y-8.8212
G1 Y-9.809
G0 Z3.0
G0 X-29.3034 Y2.0444
G0 Z1.4
G1 F300.0 Z0.0
G1 F800.0 X-27.3279
G1 X-25.3523
G1 Y3.0321
G1 Y4.0199
G1 X-27.3279
G1 X-29.3034
G1 Y3.0321
G1 Y2.0444
G0 Z3.0
G0 X-17.4501 Y0.0688
G0 Z1.4
G1 F300.0 Z0.0
G1 F800.0 Y-0.919
G1 Y-1.9068
G1 X-15.4746
G1 X-13.499
G1 Y-5.8579
G1 Y-9.809
G1 X-11.5234
G1 X-9.5479
G1 Y-5.8579
G1 Y-1.9068
G1 X-7.5723
G1 X-5.5968
G1 Y-0.919
G1 Y0.0688
G1 X-7.5723
G1 X-9.5479
G1 Y2.0444
G1 Y4.0199
G1 X-11.5234
G1 X-13.499
G1 Y2.0444
G1 Y0.0688
G1 X-15.4746
G1 X-17.4501
G0 Z3.0
G0 X-3.3352 Y-8.8148
G0 Z1.4
G1 F300.0 Z0.0
G1 F800.0 X-3.0305 Y-9.0275
G3 X-1.9215 Y-9.7074 I6.8604 J9.9458
G3 X-1.3313 Y-9.9847 I3.0168 J5.655
G3 X-1.0238 Y-10.0944 I1.8474 J4.6936
G3 X-0.707 Y-10.173 I0.7293 J2.259
G1 X-0.5562 Y-10.1999
G1 X-0.4097 Y-10.2234
G3 X-0.125 Y-10.2631 I1.6633 J10.8902
G3 X0.4108 Y-10.3215 I3.0079 J25.097
G3 X1.3513 Y-10.3896 I2.0402 J21.6541
G1 X1.7045 Y-10.4072
G1 X1.859 Y-10.4138
G3 X2.4389 Y-10.4334 I1.2838 J29.3757
G1 X2.8738 Y-10.4435
G1 X3.037 Y-10.4464
G1 X3.3224 Y-10.4504
G1 X3.7507 Y-10.4541
G1 X3.8578 Y-10.4546
G3 X3.9381 Y-10.4549 I0.0436 J0.9529
G1 X4.1789 Y-10.4553
G1 X16.4909 Y-9.6262
G1 X16.4733
G1 X4.1789 Y-10.4553
G0 Z3.0
G0 X2.7855 Y-8.4268
G0 Z1.4
G1 F300.0 Z0.0
G2 F800.0 X2.5429 Y-8.4244 I-0.0493 J7.4312
G2 X1.632 Y-8.3643 I0.1422 J9.0891
G2 X0.9456 Y-8.2408 I0.6025 J5.3143
G2 X0.4413 Y-8.0753 I0.8127 J3.3284
G1 X0.3494 Y-8.0345
G2 X0.0221 Y-7.8467 I0.8032 J1.7793
G2 X-0.3733 Y-7.4419 I0.8284 J1.2043
G2 X-0.5659 Y-6.9098 I1.1253 J0.7084
G1 X0.8981 Y-1.0449
G1 X-0.5659 Y-6.9098
G0 Z3.0
G0 X3.0621 Y-5.335
G0 Z1.4
G1 F300.0 Z0.0
G1 F800.0 X4.9568 Y-5.5333
G1 X6.8514 Y-5.7316
G1 X6.8845 Y-5.4159
G1 X6.9175 Y-5.1001
G1 X6.286 Y-5.034
G1 X5.6544 Y-4.9679
G1 X5.8527 Y-3.0732
G1 X6.0511 Y-1.1786
G1 X5.4195 Y-1.1125
G1 X4.788 Y-1.0464
G1 X4.7549 Y-1.3622
G1 X4.7219 Y-1.6779
G1 X4.4061 Y-1.6449
G1 X4.0903 Y-1.6118
G1 X4.0572 Y-1.9276
G1 X4.0242 Y-2.2434
G1 X4.34 Y-2.2764
G1 X4.6557 Y-2.3095
G1 X4.5235 Y-3.5726
G1 X4.3913 Y-4.8357
G1 X3.7598 Y-4.7696
G1 X3.1282 Y-4.7035
G1 X3.0952 Y-5.0192
G1 X3.0621 Y-5.335
G0 Z3.0
G0 X5.9076 Y-8.1798
G0 Z1.4
G1 F300.0 Z0.0
G1 F800.0 X5.5186 Y-8.2256
G2 X4.8372 Y-8.2988 I-10.3032 J92.608
G2 X3.8128 Y-8.3865 I-3.8213 J38.6187
G1 X3.5562 Y-8.4025
G1 X3.5081 Y-8.4051
G2 X2.7855 Y-8.4268 I-0.7403 J12.6285
G0 Z3.0
G0 X8.8709 Y-7.9329
G0 Z1.4
G1 F300.0 Z0.0
G1 F800.0 X10.4584 Y-7.9858
G1 X10.3702
G1 X8.9944 Y-7.9329
G1 X8.8709
G1 X8.685 Y-7.9354
G3 X8.6414 Y-7.9366 I-0.0154 J-0.2354
G1 X8.4699 Y-7.943
G1 X8.1486 Y-7.9609
G3 X8.0082 Y-7.9705 I0.401 J-6.8977
G1 X7.7451 Y-7.9907
G1 X7.515 Y-8.0104
G1 X7.1126 Y-8.0483
G1 X6.5098 Y-8.1113
G3 X6.2085 Y-8.145 I2.6145 J-24.7368
G1 X6.1709 Y-8.1493
G1 X6.0392 Y-8.1645
G1 X5.9734 Y-8.1721
G1 X5.9076 Y-8.1798
G0 Z3.0
G0 X12.8749 Y-7.8976
G0 Z1.4
G1 F300.0 Z0.0
G1 F800.0 X11.667 Y-7.95
G1 X11.0628 Y-7.9723
G1 X10.7607 Y-7.9812
G1 X10.4584 Y-7.9858
G0 Z3.0
G0 X15.3796 Y-7.8094
G0 Z1.4
G1 F300.0 Z0.0
G3 F800.0 X15.0663 Y-7.8114 I-0.0957 J-9.8594
G3 X12.8749 Y-7.8976 I0.8042 J-48.3108
G0 Z3.0
G0 X14.8943 Y-4.9862
G0 Z1.4
G1 F300.0 Z0.0
G1 F800.0 X15.2083 Y-4.9394
G1 X15.5224 Y-4.8925
G1 X15.5692 Y-5.2065
G1 X15.6161 Y-5.5205
G1 X16.5582 Y-5.3799
G1 X17.5002 Y-5.2393
G1 X17.4534 Y-4.9253
G1 X17.4065 Y-4.6113
G1 X17.7205 Y-4.5644
G1 X18.0345 Y-4.5176
G1 X17.9877 Y-4.2035
G1 X17.9408 Y-3.8895
G1 X18.2548 Y-3.8426
G1 X18.5688 Y-3.7958
G1 X18.4282 Y-2.8537
G1 X18.2876 Y-1.9116
G1 X17.9736 Y-1.9585
G1 X17.6596 Y-2.0054
G1 X17.6127 Y-1.6914
G1 X17.5658 Y-1.3773
G1 X17.2518 Y-1.4242
G1 X16.9378 Y-1.4711
G1 X16.8909 Y-1.1571
G1 X16.8441 Y-0.843
G1 X15.902 Y-0.9836
G1 X14.9599 Y-1.1242
G1 X15.0068 Y-1.4383
G1 X15.0537 Y-1.7523
G1 X14.7397 Y-1.7992
G1 X14.4256 Y-1.846
G1 X14.4725 Y-2.16
G1 X14.5194 Y-2.4741
G1 X14.2053 Y-2.5209
G1 X13.8913 Y-2.5678
G1 X14.0319 Y-3.5099
G1 X14.1725 Y-4.4519
G1 X14.4866 Y-4.4051
G1 X14.8006 Y-4.3582
G1 X14.8475 Y-4.6722
G1 X14.8943 Y-4.9862
G0 Z3.0
G0 X16.4909 Y-9.6262
G0 Z1.0
G1 F300.0 Z0.0
G1 F800.0 X16.5415 Y-9.6336
G1 X16.5666 Y-9.6362
G1 X16.9647 Y-9.6704
G3 X18.3592 Y-9.7744 I16.6021 J213.1836
G1 X19.0567 Y-9.8242
G1 X19.7541 Y-9.8732
G1 X20.2299 Y-9.9073
G3 X21.896 Y-10.0167 I10.3834 J145.4053
G3 X22.7297 Y-10.0608 I4.3734 J74.7557
G1 X23.1468 Y-10.0771
G1 X23.3554 Y-10.0826
G1 X23.4598 Y-10.0842
G1 X23.5641 Y-10.0848
G1 X23.6613 Y-10.0843
G3 X23.9521 Y-10.0672 I0.0246 J2.0626
G1 X23.7405 Y-8.9736
G1 X23.9521 Y-10.0672
G0 Z3.0
G0 X23.7405 Y-8.9736
G0 Z1.0
G1 F300.0 Z0.0
G1 F800.0 X23.2223 Y-8.8716
G3 X22.7362 Y-8.7778 I-5.7742 J-28.6227
G3 X20.9099 Y-8.4449 I-23.1523 J-121.8237
G1 X20.8241 Y-8.4301
G1 X20.7396 Y-8.4156
G1 X20.0739 Y-8.3049
G3 X18.9066 Y-8.1265 I-12.2147 J-76.0167
G3 X17.1483 Y-7.9107 I-5.415 J-36.8468
G1 X16.707 Y-7.8708
G1 X16.5414 Y-7.8579
G1 X16.4688 Y-7.8526
G3 X16.1969 Y-7.8351 I-0.5517 J-6.4329
G1 X16.0948 Y-7.8295
G3 X16.0724 Y-7.8283 I-0.0173 J-0.1183
G3 X15.3796 Y-7.8094 I-0.7061 J-13.1733
G0 Z3.0
G0 X21.5778 Y-3.6222
G0 Z1.4
G1 F300.0 Z0.0
G1 F800.0 X22.6719 Y-3.5348
G1 X21.5778 Y-3.6222
G2 X21.4992 Y-3.5187 I0.8583 J0.7335
G2 X21.2548 Y-3.0982 I3.2617 J2.1772
G2 X20.9567 Y-2.4329 I7.928 J3.9511
G2 X20.7061 Y-1.7482 I10.295 J4.1555
G2 X20.6254 Y-1.502 I7.7108 J2.6638
G1 X20.5498 Y-1.2627
G1 X20.4071 Y-0.7978
G2 X19.8926 Y0.9514 I161.982 J48.5964
G1 X19.7037 Y1.6085
G2 X19.6625 Y1.7524 I4.1098 J1.2541
G1 X19.0294 Y3.9826
G1 X18.7142 Y5.098
G1 X18.3963 Y6.2127
G3 X18.3137 Y6.4936 I-8.1453 J-2.2436
G1 X18.153 Y7.0184
G1 X18.0078 Y7.4763
G1 X17.7511 Y8.2767
G1 X17.7036 Y8.427
G2 X17.6814 Y8.4976 I0.7277 J0.2671
G1 X17.5139 Y9.0452
G2 X17.2787 Y9.8712 I35.3263 J10.5065
G1 X17.1687 Y10.2863
G1 X17.1154 Y10.4943
G1 X17.0633 Y10.7026
G1 X17.0386 Y10.8023
G1 X16.8462 Y11.5875
G1 X16.8044 Y11.7594
G1 X16.7641 Y11.9259
G2 X16.1544 Y14.5104 I253.3408 J61.125
G2 X16.0084 Y15.1581 I60.2598 J13.9277
G1 X15.9547 Y15.4013
G1 X15.943 Y15.4545
G2 X15.7688 Y16.2805 I42.4235 J9.3824
G1 X15.7481 Y16.3841
G1 X15.6799 Y16.7471
G2 X15.6252 Y17.1124 I5.0939 J0.9501
G2 X15.6226 Y17.1382 I0.0868 J0.0217
G2 X15.6083 Y17.3411 I3.606 J0.3562
G2 X15.663 Y18.0496 I2.6836 J0.1493
G2 X15.7662 Y18.3904 I2.5416 J-0.5837
G1 X15.7997 Y18.473
G2 X15.8543 Y18.5949 I2.5259 J-1.0596
G2 X15.8832 Y18.6551 I0.5789 J-0.2408
G1 X15.9128 Y18.7149
G2 X16.0329 Y18.8861 I0.658 J-0.3338
G2 X16.3138 Y19.1151 I1.0075 J-0.9492
G2 X16.798 Y19.3585 I1.62 J-2.6187
G2 X17.3098 Y19.5367 I2.1778 J-5.4326
G3 X18.1005 Y19.8297 I-1.7427 J5.916
G3 X18.8507 Y20.2147 I-3.8464 J8.4188
G3 X19.2424 Y20.4854 I-1.3005 J2.2999
G2 X19.4289 Y20.6377 I2.3295 J-2.6634
G2 X19.6519 Y20.7283 I0.2674 J-0.3385
G2 X19.8265 Y20.743 I0.3839 J-3.5151
G2 X19.9589 Y20.7483 I0.2258 J-3.9414
G2 X20.1575 Y20.7266 I0.0193 J-0.743
G2 X20.3299 Y20.6256 I-0.0778 J-0.3301
G1 X20.4586 Y20.4809
G2 X20.6183 Y20.2366 I-0.7459 J-0.6621
G2 X20.6586 Y19.9476 I-0.4969 J-0.2166
G2 X20.6082 Y19.7904 I-0.4613 J0.0613
G2 X20.4407 Y19.5597 I-0.9382 J0.5046
G2 X20.127 Y19.271 I-2.3049 J2.1902
G1 X19.7957 Y19.0025
G1 X19.5931 Y18.8421
G1 X19.4144 Y18.7036
G1 X18.7849 Y18.2244
G1 X18.7059 Y18.1648
G1 X18.1522 Y17.7493
G1 X18.5846 Y15.4261
G1 X18.8049 Y14.2652
G1 X18.9174 Y13.6852
G1 X18.9751 Y13.3954
G1 X19.0356 Y13.1063
G1 X19.2437 Y12.1418
G1 X19.6031 Y10.453
G1 X20.1376 Y7.9186
G1 X20.4018 Y6.6509
G1 X20.4182 Y6.5716
G1 X20.4795 Y6.2743
G2 X20.6586 Y5.3815 I-103.2618 J-21.1768
G1 X20.6989 Y5.173
G3 X21.3611 Y1.9478 I358.3575 J71.9062
G1 X21.6974 Y0.3363
G3 X21.7817 Y-0.0666 I165.502 J34.4211
G1 X21.9083 Y-0.6708
G3 X21.9717 Y-0.9728 I13.0007 J2.5691
G1 X22.0351 Y-1.2749
G2 X22.3775 Y-1.3202 I0.0286 J-1.1
G2 X22.5379 Y-1.3891 I-0.1846 J-0.6512
G2 X22.6719 Y-1.5009 I-0.2688 J-0.4585
G2 X22.7531 Y-1.6357 I-0.4586 J-0.3677
G2 X22.8264 Y-1.8986 I-1.1337 J-0.4578
G2 X22.8479 Y-2.1019 I-2.6342 J-0.3813
G2 X22.8158 Y-2.713 I-3.0696 J-0.1451
G1 X22.7833 Y-2.919
G1 X22.7704 Y-2.9962
G1 X22.723 Y-3.2658
G1 X22.6719 Y-3.5348
G0 Z3.0
G0 X26.5665 Y-8.6927
G0 Z1.4
G1 F300.0 Z0.0
G2 F800.0 X26.6122 Y-8.2814 I1.804 J0.0077
G2 X26.7253 Y-7.9147 I2.3841 J-0.5347
G2 X27.0625 Y-7.285 I3.2125 J-1.3152
G2 X27.4409 Y-6.7909 I3.9436 J-2.6277
G2 X28.2072 Y-6.0201 I6.0254 J-5.2244
G2 X28.8339 Y-5.4993 I8.7695 J-9.9156
G1 X29.0766 Y-5.3138
G1 X29.2918 Y-5.1553
G1 X29.4821 Y-5.0192
G1 X29.6499 Y-4.902
G2 X30.2457 Y-4.5045 I9.6454 J-13.8142
G1 X30.3965 Y-4.4079
G2 X30.5101 Y-4.3361 I1.5812 J-2.3764
G1 X30.6811 Y-4.2296
G1 X30.8527 Y-4.1242
G1 X31.0305 Y-4.0157
G1 X31.2033 Y-3.9115
G2 X31.8785 Y-3.5169 I12.7425 J-21.0289
G1 X32.1771 Y-3.3493
G2 X33.3159 Y-2.7554 I10.6507 J-19.0327
G2 X34.1941 Y-2.3561 I7.1014 J-14.4535
G2 X34.8692 Y-2.0932 I5.5415 J-13.2316
G2 X35.912 Y-1.7864 I2.9132 J-7.978
G2 X36.1789 Y-1.7327 I1.0284 J-4.4188
G1 X36.3805 Y-1.7004
G1 X36.5324 Y-1.6812
G2 X36.9911 Y-1.6548 I0.5103 J-4.8556
G2 X37.9097 Y-1.9602 I-0.0123 J-1.571
G2 X38.274 Y-2.2817 I-1.3467 J-1.8929
G2 X38.4329 Y-2.4657 I-2.1476 J-2.0163
G2 X38.5073 Y-2.5617 I-0.9666 J-0.825
G2 X38.5433 Y-2.6107 I-0.5923 J-0.4737
G2 X38.5786 Y-2.6602 I-0.5302 J-0.4152
G1 Y-3.4187
G1 Y-2.6602
G0 Z3.0
G0 Y-3.4187
G0 Z1.0
G1 F300.0 Z0.0
G2 F800.0 X38.4239 Y-3.6129 I-1.3416 J0.9095
G2 X38.1296 Y-3.8421 I-0.8096 J0.736
G2 X37.7672 Y-3.9302 I-0.3581 J0.6835
G2 X37.6873 Y-3.9133 I0.0591 J0.4754
G2 X37.4206 Y-3.8131 I0.8003 J2.5382
G1 X37.1586 Y-3.7009
G1 X37.0055 Y-3.6345
G1 X36.8898 Y-3.5864
G3 X36.8462 Y-3.5689 I-0.2297 J-0.5082
G3 X36.7695 Y-3.5391 I-0.3049 J-0.673
G3 X36.653 Y-3.4983 I-0.5193 J-1.2942
G3 X36.5324 Y-3.4716 I-0.1621 J-0.4458
G3 X36.3103 Y-3.4976 I0.0142 J-1.0812
G1 X36.2086 Y-3.5212
G3 X36.1112 Y-3.5483 I0.3322 J-1.3862
G1 X36.0179 Y-3.5774
G3 X35.3146 Y-3.8594 I2.2357 J-6.5931
G3 X34.2979 Y-4.3667 I7.3897 J-16.0811
G3 X33.3045 Y-4.918 I15.3175 J-28.775
G1 X33.2012 Y-4.9765
G1 X32.8019 Y-5.205
G1 X32.6276 Y-5.3059
G1 X32.3018 Y-5.4965
G1 X32.1596 Y-5.5806
G1 X31.8939 Y-5.7396
G3 X31.4318 Y-6.023 I14.6495 J-24.4072
G3 X30.7494 Y-6.4651 I10.3803 J-16.7704
G3 X30.4164 Y-6.6984 I4.4572 J-6.7165
G3 X30.0943 Y-6.9464 I4.697 J-6.433
G3 X29.7477 Y-7.2858 I2.4538 J-2.8523
G3 X29.3228 Y-7.876 I2.3361 J-2.1297
G3 X29.0536 Y-8.5516 I2.4218 J-1.3567
G3 X29.7278 Y-8.988 I1.4786 J1.5454
G3 X30.5176 Y-9.1337 I0.7674 J1.9461
G3 X30.6575 Y-9.1155 I-0.0373 J0.8367
G3 X30.9221 Y-9.0497 I-0.825 J3.8798
G3 X31.4105 Y-8.8991 I-3.1977 J11.2362
G1 X31.6226 Y-8.8285
G1 X31.7218 Y-8.7947
G3 X32.4876 Y-8.5247 I-14.7103 J42.942
G1 X32.7738 Y-8.4207
G1 X33.2737 Y-8.2361
G1 X33.4609 Y-8.1662
G1 X33.7883 Y-8.0431
G1 X34.7686 Y-7.6696
G2 X35.0496 Y-7.5603 I16.3966 J-41.7199
G1 X35.5774 Y-7.3575
G2 X36.5047 Y-7.0114 I22.8242 J-59.7431
G1 X36.6792 Y-6.9481
G1 X36.8431 Y-6.8893
G1 X36.9969 Y-6.8347
G2 X38.1588 Y-6.4494 I9.7015 J-27.3076
G1 X38.3057 Y-6.4056
G2 X38.8242 Y-6.2679 I2.479 J-8.2871
G2 X39.0874 Y-6.2147 I1.1305 J-4.9151
G2 X39.3547 Y-6.188 I0.3092 J-1.7428
G2 X39.5819 Y-6.1938 I-0.0157 J-5.0074
G2 X39.978 Y-6.2374 I-0.1963 J-3.6039
G2 X40.5501 Y-6.413 I-0.3617 J-2.1982
G2 X41.0304 Y-6.77 I-0.6165 J-1.3308
G2 X41.1562 Y-6.9605 I-1.4726 J-1.1094
G2 X41.3558 Y-7.3063 I-9.8475 J-5.9168
G1 X41.5014 Y-7.568
G1 X41.6095 Y-7.7649
G1 X41.9299 Y-8.3575
G3 X43.3411 Y-10.3331 I8.0967 J4.2916
G1 Y-11.1268
G1 Y-10.3331
G0 Z3.0
G0 Y-11.1268
G0 Z1.0
G1 F300.0 Z0.0
G1 F800.0 X43.2655 Y-11.225
G2 X42.9448 Y-11.5156 I-1.0416 J0.8272
G2 X42.5297 Y-11.6384 I-0.4205 J0.6587
G2 X42.4508 Y-11.6176 I0.0181 J0.2293
G2 X42.3158 Y-11.5401 I0.3222 J0.7167
G2 X41.8647 Y-11.1725 I2.5208 J3.5539
G2 X41.7041 Y-11.0248 I4.185 J4.7127
G1 X41.6693 Y-10.9921
G1 X41.5355 Y-10.8645
G2 X41.3041 Y-10.6382 I8.154 J8.5681
G2 X40.6247 Y-9.945 I21.4747 J21.7277
G1 X40.3838 Y-9.6945
G1 X40.1698 Y-9.4779
G3 X39.3859 Y-8.7548 I-8.3337 J-8.2474
G3 X39.1749 Y-8.5879 I-2.9476 J-3.5088
G3 X38.8381 Y-8.364 I-1.8204 J-2.3728
G1 X38.7477 Y-8.3169
G1 X38.6778 Y-8.2858
G3 X38.4551 Y-8.2341 I-0.2436 J-0.5431
G2 X38.3978 Y-8.2637 I-0.1399 J0.2003
G2 X37.9276 Y-8.4538 I-5.6156 J13.2155
G1 X37.0998 Y-8.7733
G1 X35.8554 Y-9.2461
G1 X34.6098 Y-9.7157
G1 X34.3034 Y-9.8292
G1 X34.0158 Y-9.9344
G1 X33.4752 Y-10.1287
G1 X33.2382 Y-10.2122
G1 X33.0156 Y-10.2897
G1 X32.8066 Y-10.3614
G2 X32.4138 Y-10.4933 I-5.6806 J16.2657
G1 X32.069 Y-10.6055
G2 X30.8511 Y-10.9631 I-6.853 J21.0865
G2 X30.5424 Y-11.039 I-3.6584 J14.2145
G1 X30.3094 Y-11.0898
G1 X30.2216 Y-11.1071
G2 X30.0675 Y-11.1344 I-0.9374 J4.8371
G2 X29.8348 Y-11.1661 I-0.5658 J3.2861
G2 X29.6004 Y-11.1798 I-0.2459 J2.2035
G2 X29.06 Y-11.1037 I0.0162 J2.0723
G2 X28.6755 Y-10.9661 I0.6613 J2.4549
G2 X28.1379 Y-10.6742 I1.4936 J3.3917
G2 X27.6424 Y-10.3155 I3.0237 J4.6969
G1 X27.5461 Y-10.2365
G1 X27.4573 Y-10.1605
G2 X27.1403 Y-9.8569 I3.1525 J3.6082
G2 X26.7451 Y-9.3282 I1.8925 J1.8269
G2 X26.6156 Y-9.0218 I1.4995 J0.8138
G2 X26.5665 Y-8.6927 I1.1067 J0.3335
G0 Z3.0
G0 X12.0147 Y2.5497
G0 Z1.4
G1 F300.0 Z0.0
G1 F800.0 X11.8166 Y2.7978
G1 X11.6185 Y3.0459
G1 X11.1223 Y2.6496
G1 X10.6261 Y2.2534
G1 X9.4373 Y3.742
G1 X8.2486 Y5.2306
G1 X7.7524 Y4.8344
G1 X7.2562 Y4.4381
G1 X7.4543 Y4.19
G1 X7.6524 Y3.9419
G1 X7.4043 Y3.7438
G1 X7.1562 Y3.5457
G1 X7.3544 Y3.2976
G1 X7.5525 Y3.0495
G1 X7.8006 Y3.2476
G1 X8.0487 Y3.4457
G1 X8.8412 Y2.4533
G1 X9.6337 Y1.4609
G1 X9.1375 Y1.0647
G1 X8.6413 Y0.6684
G1 X8.8394 Y0.4203
G1 X9.0375 Y0.1722
G1 X10.5261 Y1.3609
G1 X12.0147 Y2.5497
G0 Z3.0
G0 X13.1043 Y5.5316
G0 Z1.4
G1 F300.0 Z0.0
G1 F800.0 X13.822 Y5.2694
G1 X13.931 Y5.5676
G1 X14.0399 Y5.8658
G1 X14.3381 Y5.7568
G1 X14.6364 Y5.6479
G1 X14.7453 Y5.9461
G1 X14.8543 Y6.2443
G1 X15.1525 Y6.1353
G1 X15.4507 Y6.0264
G1 X15.7776 Y6.921
G1 X16.1045 Y7.8157
G1 X15.8063 Y7.9246
G1 X15.5081 Y8.0336
G1 X15.617 Y8.3318
G1 X15.726 Y8.63
G1 X15.4278 Y8.739
G1 X15.1296 Y8.848
G1 X15.2385 Y9.1462
G1 X15.3475 Y9.4444
G1 X14.4528 Y9.7713
G1 X13.5582 Y10.0982
G1 X13.4492 Y9.8
G1 X13.3403 Y9.5017
G1 X13.042 Y9.6107
G1 X12.7438 Y9.7197
G1 X12.6349 Y9.4214
G1 X12.5259 Y9.1232
G1 X12.2277 Y9.2322
G1 X11.9295 Y9.3412
G1 X11.6026 Y8.4465
G1 X11.2757 Y7.5519
G1 X11.5739 Y7.4429
G1 X11.8721 Y7.3339
G1 X11.7631 Y7.0357
G1 X11.6542 Y6.7375
G1 X11.9524 Y6.6285
G1 X12.2506 Y6.5196
G1 X12.1417 Y6.2214
G1 X12.0327 Y5.9231
G1 X12.9273 Y5.5962
G1 X13.1043 Y5.5316
G0 Z3.0
G0 X2.9795 Y6.2135
G0 Z1.4
G1 F300.0 Z0.0
G1 F800.0 X3.0205 Y6.3539
G1 X3.0406 Y6.422
G1 X3.203 Y6.9561
G1 X3.2761 Y7.1891
G1 X3.5554 Y8.0614
G3 X4.3112 Y10.7026 I-37.1383 J12.0569
G1 X4.5075 Y11.5005
G1 X4.6774 Y12.1992
G1 X4.8246 Y12.8109
G1 X4.9522 Y13.3464
G1 X5.1721 Y14.2844
G1 X5.2128 Y14.4605
G1 X5.363 Y15.121
G1 X5.4728 Y15.617
G1 X5.513 Y15.8033
G1 X5.5819 Y16.1296
G1 X5.607 Y16.2522
G1 X5.6286 Y16.3595
G1 X5.6472 Y16.4534
G1 X5.7086 Y16.7828
G3 X5.7357 Y16.9482 I-2.7874 J0.5429
G1 X5.7576 Y17.1143
G1 X5.7669 Y17.217
G3 X5.7751 Y17.6031 I-3.2181 J0.2617
G3 X5.6859 Y18.175 I-2.364 J-0.0757
G3 X5.5891 Y18.4481 I-2.1052 J-0.5921
G1 X5.5301 Y18.5804
G3 X5.5223 Y18.5969 I-0.0886 J-0.0319
G1 X5.4666 Y18.7106
G3 X5.347 Y18.8821 I-0.7228 J-0.3768
G3 X5.0674 Y19.1131 I-1.0676 J-1.0076
G3 X4.5846 Y19.3599 I-1.6106 J-2.5542
G1 X4.4585 Y19.4098
G3 X4.0731 Y19.5397 I-2.2721 J-6.1078
G2 X3.2812 Y19.8332 I1.8474 J6.1988
G2 X3.0897 Y19.9224 I5.3129 J11.6605
G1 X2.9479 Y19.9929
G2 X2.5297 Y20.2188 I7.1226 J13.6844
G2 X2.1376 Y20.4889 I1.2519 J2.2369
G3 X1.9504 Y20.6404 I-2.0469 J-2.3379
G3 X1.8452 Y20.7014 I-0.3794 J-0.533
G3 X1.7271 Y20.7303 I-0.1485 J-0.3513
G1 X1.5379 Y20.7458
G3 X1.5141 Y20.7472 I-0.0219 J-0.1675
G3 X1.3479 Y20.7479 I-0.0923 J-2.0503
G3 X1.1855 Y20.7163 I0.0192 J-0.5315
G3 X1.048 Y20.6245 I0.1053 J-0.3063
G1 X0.9835 Y20.5523
G3 X0.8737 Y20.4225 I1.8841 J-1.7043
G3 X0.7479 Y20.1998 I0.6365 J-0.5065
G3 X0.7217 Y19.9454 I0.5095 J-0.181
G3 X0.7723 Y19.7883 I0.5171 J0.0797
G3 X0.9402 Y19.5579 I0.9589 J0.5226
G3 X1.2545 Y19.2698 I2.4021 J2.3058
G1 X1.586 Y19.0017
G1 X1.7882 Y18.8415
G1 X1.9667 Y18.7031
G1 X2.045 Y18.6428
G1 X2.3393 Y18.418
G1 X2.7823 Y18.0828
G1 X3.2264 Y17.7493
G1 X2.7947 Y15.428
G1 X2.5749 Y14.2681
G1 X2.4626 Y13.6886
G1 X2.4049 Y13.3991
G1 X2.3445 Y13.1103
G3 X1.741 Y10.2712 I866.0423 J-185.5821
G1 X1.1451 Y7.4306
G1 X0.6814 Y5.6912
G1 X0.3369 Y4.3858
G1 X0.2086 Y3.896
G1 X-0.0145 Y3.0385
G1 X-0.3456 Y1.7515
G1 X-0.6717 Y0.4632
G1 X-0.7453 Y0.1706
G1 X-0.8896 Y-0.3958
G1 X-1.0272 Y-0.9263
G2 X-3.3352 Y-8.8148 I-141.3313 J37.0686
G0 Z3.0
G0 X0.8981 Y-1.0449
G0 Z1.0
G1 F300.0 Z0.0
G1 F800.0 X0.9158 Y-0.9876
G1 X0.9246 Y-0.9589
G1 X0.929 Y-0.9445
G3 X0.9334 Y-0.9303 I-0.0871 J0.0344
G1 X0.9672 Y-0.8191
G3 X0.9837 Y-0.7644 I-0.6213 J0.2178
G1 X1.1137 Y-0.3297
G1 X1.234 Y0.0782
G1 X1.4564 Y0.8439
G1 X1.5529 Y1.1792
G3 X2.2671 Y3.6961 I-658.7102 J188.2795
G1 X2.6218 Y4.9552
G2 X2.644 Y5.034 I1.4268 J-0.3599
G1 X2.8109 Y5.624
G1 X2.9795 Y6.2135
G0 Z3.0
G0 X46.1456 Y1.8201
G0 Z1.4
G1 F300.0 Z0.0
G1 F800.0 Y-2.9777
G1 Y1.8201
G2 X46.1749 Y3.4095 I48.7879 J-0.103
G2 X46.2873 Y5.791 I88.0717 J-2.9648
G1 X46.3051 Y6.0886
G1 X46.3377 Y6.6091
G1 X46.3504 Y6.8043
G1 X46.3732 Y7.1459
G1 X46.4455 Y8.1701
G1 X47.204 Y18.3654
G1 X46.4455 Y8.1701
G0 Z3.0
G0 X49.4088 Y18.7182
G0 Z1.4
G1 F300.0 Z0.0
G1 F800.0 X48.1741 Y0.0386
G1 X49.4088 Y18.7182
G0 Z3.0
G0 X49.4265 Y19.1238
G0 Z1.4
G1 F300.0 Z0.0
G1 F800.0 X49.4254 Y19.0223
G2 X49.4198 Y18.87 I-9.1099 J0.2611
G2 X49.4088 Y18.7182 I-1.8885 J0.06
G0 Z3.0
G0 X47.204 Y18.3654
G0 Z1.0
G1 F300.0 Z0.0
G2 F800.0 X47.4002 Y19.8065 I10.379 J-0.6795
G2 X47.5873 Y20.5107 I6.338 J-1.3069
G2 X47.8566 Y21.1876 I5.128 J-1.6481
G1 X48.8797
G1 X47.8566
G0 Z3.0
G0 X48.8797
G0 Z1.0
G1 F300.0 Z0.0
G2 F800.0 X49.3054 Y20.1961 I-2.6456 J-1.723
G2 X49.4265 Y19.1238 I-4.3454 J-1.0337
G0 Z3.0
G0 X48.1741 Y0.0386
G0 Z1.0
G1 F300.0 Z0.0
G1 F800.0 Y-0.0143
G3 X48.2908 Y-0.427 I0.8625 J0.021
G3 X48.5445 Y-0.7728 I1.547 J0.8691
G3 X48.6989 Y-0.9367 I1.2407 J1.0138
G3 X48.9744 Y-1.1332 I0.7946 J0.8228
G3 X49.303 Y-1.2138 I0.337 J0.6635
G1 X49.4038 Y-1.2059
G1 X49.7931 Y-1.1611
G1 X50.1334 Y-1.1189
G1 X50.7286 Y-1.0428
G1 X51.1749 Y-0.9847
G1 X52.5133 Y-0.8081
G1 X59.1631 Y0.0562
G1 X52.5133 Y-0.8081
G0 Z3.0
G0 X60.4508 Y-1.2491
G0 Z1.4
G1 F300.0 Z0.0
G1 F800.0 X48.6327 Y-3.4716
G1 X60.4508 Y-1.2491
G0 Z3.0
G0 X60.6801 Y-1.2314
G0 Z1.4
G1 F300.0 Z0.0
G3 F800.0 X60.565 Y-1.2344 I-0.0065 J-1.9872
G3 X60.4508 Y-1.2491 I0.016 J-0.5764
G0 Z3.0
G0 X59.1631 Y0.0562
G0 Z1.0
G1 F300.0 Z0.0
G1 F800.0 X59.5023 Y0.0996
G2 X60.0958 Y0.1747 I9.8766 J-75.6847
G1 X60.9866 Y0.2837
G1 X61.4325 Y0.3346
G2 X61.6557 Y0.3576 I0.9223 J-7.852
G2 X61.7116 Y0.3628 I0.0814 J-0.5734
G2 X61.8795 Y0.3737 I0.3839 J-4.6087
G2 X63.0319 Y0.3189 I0.0307 J-11.4863
G2 X64.7346 Y0.0136 I-1.0413 J-10.7094
G2 X66.3598 Y-0.5788 I-2.4802 J-9.3302
G2 X66.4209 Y-0.6077 I-0.4066 J-0.9375
G2 X66.8926 Y-0.8542 I-3.651 J-7.5601
G2 X67.6636 Y-1.3816 I-2.5499 J-4.5556
G2 X68.1661 Y-1.8755 I-2.418 J-2.9622
G2 X68.7021 Y-2.7845 I-2.3148 J-1.9776
G2 X68.8822 Y-3.8243 I-2.7808 J-1.0171
G2 X68.7626 Y-4.3782 I-1.4301 J0.0188
G2 X68.5242 Y-4.8043 I-2.0763 J0.8822
G2 X68.2598 Y-5.1378 I-2.8795 J2.0112
G2 X67.7276 Y-5.6568 I-4.0201 J3.5893
G2 X66.8419 Y-6.3322 I-6.4671 J7.5634
G1 X66.8131 Y-6.3519
G2 X65.9012 Y-6.9288 I-8.8699 J13.011
G2 X63.8003 Y-8.0552 I-11.7145 J19.326
G2 X62.7047 Y-8.5263 I-7.6975 J16.3947
G1 X62.5656 Y-8.5801
G2 X61.5797 Y-8.922 I-5.744 J14.9719
G2 X60.9913 Y-9.0884 I-4.5108 J14.8203
G1 X60.7322 Y-9.155
G2 X60.6105 Y-9.1851 I-0.5318 J1.8943
G1 X60.3742 Y-9.2412
G1 X60.2632 Y-9.2666
G1 X59.832 Y-9.3601
G1 X59.4534 Y-9.4357
G1 X59.2874 Y-9.4671
G2 X59.1316 Y-9.4957 I-0.7293 J3.534
G2 X56.7819 Y-9.8392 I-6.6629 J37.3741
G1 X56.7053 Y-9.8491
G1 X56.4039 Y-9.8863
G1 X56.1212 Y-9.9201
G1 X55.0607 Y-10.0435
G1 X53.4696 Y-10.2246
G1 X51.8783 Y-10.4037
G1 X51.7922 Y-10.4143
G3 X51.1283 Y-10.5195 I2.8072 J-19.8546
G1 X50.8799 Y-10.5626
G3 X50.7713 Y-10.5817 I0.2305 J-1.6271
G1 X49.9574 Y-10.7288
G1 X49.1443 Y-10.8799
G1 X48.9833 Y-10.909
G2 X47.7727 Y-11.1052 I-5.3389 J29.12
G1 X47.4687 Y-11.1451
G2 X47.0109 Y-11.193 I-1.4915 J12.0443
G2 X46.7814 Y-11.2086 I-0.398 J4.1508
G2 X46.5513 Y-11.215 I-0.3024 J6.7381
G2 X46.3679 Y-11.1962 I0.0148 J1.0462
G2 X46.0586 Y-11.1081 I0.4081 J2.0199
G2 X45.6171 Y-10.9149 I1.4314 J3.8731
G2 X45.4034 Y-10.8036 I2.1184 J4.327
G2 X45.1931 Y-10.6859 I6.4665 J11.7936
G2 X45.3999 Y-10.2568 I4.452 J-1.8812
G2 X45.4902 Y-10.1018 I2.3874 J-1.2866
G2 X45.8789 Y-9.6089 I2.1235 J-1.275
G2 X46.4102 Y-9.2748 I1.0173 J-1.028
G2 X46.6587 Y-9.2009 I1.8161 J-5.6555
G2 X46.7762 Y-9.1703 I0.4221 J-1.3795
G2 X47.2355 Y-9.0686 I1.8842 J-7.4194
G2 X48.0472 Y-8.9324 I3.1126 J-16.0692
G2 X48.6593 Y-8.8521 I2.5557 J-17.094
G1 X49.1193 Y-8.8002
G1 X49.4647 Y-8.7651
G1 X49.5943 Y-8.7527
G1 X49.8213 Y-8.7318
G1 X50.1618 Y-8.7024
G1 X50.247 Y-8.6954
G2 X50.3109 Y-8.6902 I0.093 J-0.7495
G1 X50.5024 Y-8.675
G1 X50.7222 Y-8.6577
G3 X52.4238 Y-8.5051 I-9.3839 J114.2341
G1 X53.0615 Y-8.4436
G1 X53.6194 Y-8.3886
G1 X53.8635 Y-8.3643
G1 X54.7786 Y-8.272
G1 X56.1508 Y-8.1308
G1 X57.5227 Y-7.9871
G3 X58.2172 Y-7.8689 I-0.9256 J7.538
G3 X58.3675 Y-7.8357 I-0.4827 J2.5439
G3 X59.5193 Y-7.5246 I-3.648 J15.7893
G3 X61.2144 Y-6.9522 I-9.6785 J31.4632
G3 X62.8849 Y-6.3114 I-18.8636 J51.6725
G3 X63.1671 Y-6.1973 I-3.5975 J9.2969
G3 X63.4309 Y-6.0875 I-3.2474 J8.1764
G3 X63.6774 Y-5.982 I-2.9107 J7.1402
G3 X63.9079 Y-5.8804 I-2.7455 J6.5428
G3 X64.1232 Y-5.7827 I-2.6183 J6.0557
G3 X64.9197 Y-5.3909 I-5.7539 J12.7025
G3 X65.214 Y-5.2299 I-4.4554 J8.494
G3 X65.2779 Y-5.1934 I-0.4851 J0.9234
G3 X65.7632 Y-4.8922 I-3.6205 J6.3747
G3 X66.1115 Y-4.6374 I-2.9082 J4.3407
G3 X66.3567 Y-4.4227 I-2.2196 J2.7832
G3 X66.67 Y-4.045 I-1.3384 J1.4289
G3 X66.7767 Y-3.8216 I-0.948 J0.5899
G3 X66.8184 Y-3.5774 I-0.6914 J0.2439
G1 Y-3.5068
G3 X66.6841 Y-3.1185 I-0.9386 J-0.1074
G3 X66.4634 Y-2.844 I-1.2891 J-0.8102
G3 X65.9738 Y-2.4773 I-1.7594 J-1.8386
G3 X65.8745 Y-2.4201 I-0.7821 J-1.2435
G3 X65.4903 Y-2.2285 I-2.4573 J-4.4461
G3 X64.8918 Y-1.9914 I-3.2869 J-7.4221
G1 X64.7396 Y-1.9392
G3 X64.6248 Y-1.9016 I-0.877 J-2.4823
G3 X64.2784 Y-1.7959 I-2.2888 J-6.8798
G3 X62.4989 Y-1.3885 I-4.3456 J-14.8914
G3 X61.5928 Y-1.2729 I-2.0734 J-12.6475
G3 X60.6801 Y-1.2314 I-0.9346 J-10.5026
G0 Z3.0
G0 X48.6327 Y-3.4716
G0 Z1.0
G1 F300.0 Z0.0
G2 F800.0 X48.4034 Y-3.4892 I-0.2104 J1.2357
G2 X47.8258 Y-3.4287 I0.0601 J3.3604
G2 X46.9784 Y-3.2304 I1.7473 J9.3754
G2 X46.7692 Y-3.1709 I1.927 J7.175
G1 X46.4566 Y-3.0767
G1 X46.1456 Y-2.9777
G0 Z3.0
M5
M30
