( Made using CamBam - http://www.cambam.co.uk )
( Untitled 11/5/2014 10:53:24 PM )
( T0 : 0.0 )
(G21 G90 G64 G40 <-- G64 and 40 are not supported)
G21 G90
G0 Z3.0
( T0 : 0.0 )
(T0 M6 <-- M6 not supported, it's a tool change)
( Profile2 )
G17
M3 S1000
G0 X35.7771 Y0.0
G0 Z1.4
G1 F300.0 Z0.0
G3 F800.0 X-17.8885 Y30.9839 I-35.7771 J0.0
G3 Y-30.9839 I17.8885 J-30.9839
G3 X35.7771 Y0.0 I17.8885 J30.9839
( Pocket1 )
S1000
G0 Z3.0
G0 X8.1954 Y-10.0914
G0 Z1.4
G1 F300.0 Z0.0
G3 F800.0 X12.0208 Y-4.9497 I-8.1954 J10.0914
G1 X16.0169 Y4.755
G1 X16.1631 Y4.569
G1 X14.2108 Y-6.1683
G1 X8.1954 Y-10.0914
G1 F300.0 X5.9306 Y-11.5684
G1 F800.0 X2.8183 Y-13.5982
G1 X1.6766 Y-12.8914
G3 X5.9306 Y-11.5684 I-1.6766 J12.8914
G1 F300.0 X4.1058 Y-8.0089
G3 F800.0 X8.3221 Y-3.4267 I-4.1058 J8.0089
G1 X13.9027 Y10.1261
G1 X16.1485 Y11.0619
G1 X20.4206 Y5.6247
G1 X17.8383 Y-8.578
G1 X2.8742 Y-18.3372
G1 X-10.4923 Y-10.0627
G1 X-15.9297 Y6.2495
G1 X-13.8316 Y8.9198
G1 X-13.4809 Y8.6081
G1 X-8.2723 Y-3.5453
G3 X4.1058 Y-8.0089 I8.2723 J3.5453
G1 F300.0 X2.281 Y-4.4494
G3 F800.0 X4.6234 Y-1.9037 I-2.281 J4.4494
G1 X10.8348 Y13.1812
G1 X17.4158 Y15.9233
G1 X24.6781 Y6.6804
G1 X21.4657 Y-10.9878
G1 X2.9301 Y-23.0762
G1 X-13.829 Y-12.7015
G1 X-20.4054 Y7.0275
G1 X-14.3509 Y14.7332
G1 X-10.156 Y11.0045
G1 X-4.5957 Y-1.9696
G3 X2.281 Y-4.4494 I4.5957 J1.9696
G0 Z3.0
M5
M30